(G-CODE GENERATED BY FLATCAM v8.991 - www.flatcam.org - Version Date: 2019/12/27)

(Name: Drill_PTH_Through.DRL_cnc_aruzhan)
(Type: G-code from Excellon)
(Units: MM)

(Created on Thursday, 11 July 2024 at 16:43)

(Feedrate: 300.0 mm/min)
(Feedrate rapids 1500.0 mm/min)

(Z_Cut: -2.2 mm)
(Z_Move: 2.0 mm)
(Z Toolchange: 15.0 mm)
(X,Y Toolchange: 0.0000, 0.0000 mm)
(Z Start: None mm)
(Z End: 0.5 mm)
(Steps per circle: 64)
(Preprocessor Excellon: default)

(X range:    5.2445 ...   46.2245  mm)
(Y range:    6.4665 ...   30.5005  mm)

(Spindle Speed: None RPM)
G21
G90
G94




G01 F300.00
G00 Z2.0000

M03
G00 X20.8810 Y7.1170
G01 Z-2.2000
G01 Z0
G00 Z2.0000
G00 X25.8890 Y7.1170
G01 Z-2.2000
G01 Z0
G00 Z2.0000
G00 X37.8630 Y8.0420
G01 Z-2.2000
G01 Z0
G00 Z2.0000
G00 X37.8630 Y13.0500
G01 Z-2.2000
G01 Z0
G00 Z2.0000
G00 X45.5740 Y25.1510
G01 Z-2.2000
G01 Z0
G00 Z2.0000
G00 X40.5660 Y25.1510
G01 Z-2.2000
G01 Z0
G00 Z2.0000
G00 X30.2430 Y29.8500
G01 Z-2.2000
G01 Z0
G00 Z2.0000
G00 X25.1630 Y29.8500
G01 Z-2.2000
G01 Z0
G00 Z2.0000
G00 X20.0830 Y29.8500
G01 Z-2.2000
G01 Z0
G00 Z2.0000
G00 X10.9390 Y29.6870
G01 Z-2.2000
G01 Z0
G00 Z2.0000
G00 X10.9390 Y24.6790
G01 Z-2.2000
G01 Z0
G00 Z2.0000
G00 X5.8950 Y14.7370
G01 Z-2.2000
G01 Z0
G00 Z2.0000
G00 X10.9030 Y14.7370
G01 Z-2.2000
G01 Z0
G00 Z2.0000
M05
G00 Z0.50
G00 X0.0 Y0.0

