(G-CODE GENERATED BY FLATCAM v8.991 - www.flatcam.org - Version Date: 2019/12/27)

(Name: Gerber_BottomLayer.GBL_iso_cnc_aruzhan)
(Type: G-code from Geometry)
(Units: MM)

(Created on Thursday, 11 July 2024 at 16:40)

(TOOL DIAMETER: 0.2 mm)
(Feedrate: 120.0 mm/min)
(Feedrate_Z: 60.0 mm/min)
(Feedrate rapids 1500.0 mm/min)

(Z_Cut: -0.09 mm)
(Z_Move: 2.0 mm)
(Z Toolchange: 15.0 mm)
(X,Y Toolchange: 0.0000, 0.0000 mm)
(Z Start: None mm)
(Z End: 15.0 mm)
(Steps per circle: 64)
(Preprocessor Geometry: default)

(X range:    4.0755 ...   47.3934  mm)
(Y range:    5.2980 ...   31.6690  mm)

(Spindle Speed: None RPM)
G21
G90
G94




G01 F120.00
G00 Z2.0000

M03
G00 X5.1943 Y15.5852
G01 F60.00
G01 Z-0.0900
G01 F120.00
G01 X5.1203 Y15.5182
G01 X5.1133 Y15.5113
G01 X5.0474 Y15.4385
G01 X5.0412 Y15.4310
G01 X4.9828 Y15.3521
G01 X4.9773 Y15.3440
G01 X4.9269 Y15.2598
G01 X4.9222 Y15.2512
G01 X4.8803 Y15.1624
G01 X4.8765 Y15.1534
G01 X4.8435 Y15.0610
G01 X4.8406 Y15.0516
G01 X4.8168 Y14.9564
G01 X4.8148 Y14.9468
G01 X4.8004 Y14.8497
G01 X4.7995 Y14.8399
G01 X4.7947 Y14.7419
G01 X4.7947 Y14.7321
G01 X4.7995 Y14.6341
G01 X4.8004 Y14.6243
G01 X4.8148 Y14.5272
G01 X4.8168 Y14.5176
G01 X4.8406 Y14.4224
G01 X4.8435 Y14.4130
G01 X4.8765 Y14.3206
G01 X4.8803 Y14.3116
G01 X4.9222 Y14.2228
G01 X4.9269 Y14.2142
G01 X4.9773 Y14.1300
G01 X4.9828 Y14.1219
G01 X5.0412 Y14.0430
G01 X5.0474 Y14.0355
G01 X5.1133 Y13.9627
G01 X5.1203 Y13.9558
G01 X5.1930 Y13.8899
G01 X5.2006 Y13.8837
G01 X5.2794 Y13.8252
G01 X5.2876 Y13.8198
G01 X5.3717 Y13.7693
G01 X5.3804 Y13.7647
G01 X5.4691 Y13.7227
G01 X5.4782 Y13.7190
G01 X5.5706 Y13.6859
G01 X5.5800 Y13.6831
G01 X5.6752 Y13.6592
G01 X5.6848 Y13.6573
G01 X5.7819 Y13.6429
G01 X5.7916 Y13.6419
G01 X5.8896 Y13.6371
G01 X5.8995 Y13.6371
G01 X5.9991 Y13.6421
G01 X13.0194 Y6.6218
G01 X13.0666 Y6.5789
G01 X13.0742 Y6.5726
G01 X13.1215 Y6.5375
G01 X13.1297 Y6.5321
G01 X13.1802 Y6.5018
G01 X13.1888 Y6.4972
G01 X13.2421 Y6.4720
G01 X13.2512 Y6.4682
G01 X13.3066 Y6.4484
G01 X13.3160 Y6.4455
G01 X13.3732 Y6.4312
G01 X13.3828 Y6.4293
G01 X13.4411 Y6.4207
G01 X13.4508 Y6.4197
G01 X13.5146 Y6.4167
G01 X20.0324 Y6.4167
G01 X20.0994 Y6.3427
G01 X20.1063 Y6.3358
G01 X20.1790 Y6.2699
G01 X20.1866 Y6.2637
G01 X20.2654 Y6.2052
G01 X20.2736 Y6.1998
G01 X20.3578 Y6.1493
G01 X20.3664 Y6.1447
G01 X20.4551 Y6.1027
G01 X20.4642 Y6.0990
G01 X20.5566 Y6.0659
G01 X20.5660 Y6.0631
G01 X20.6612 Y6.0392
G01 X20.6708 Y6.0373
G01 X20.7679 Y6.0229
G01 X20.7776 Y6.0219
G01 X20.8757 Y6.0171
G01 X20.8855 Y6.0171
G01 X20.9835 Y6.0219
G01 X20.9933 Y6.0229
G01 X21.0903 Y6.0373
G01 X21.0999 Y6.0392
G01 X21.1951 Y6.0631
G01 X21.2045 Y6.0659
G01 X21.2969 Y6.0990
G01 X21.3060 Y6.1027
G01 X21.3947 Y6.1447
G01 X21.4034 Y6.1493
G01 X21.4875 Y6.1998
G01 X21.4957 Y6.2052
G01 X21.5745 Y6.2637
G01 X21.5821 Y6.2699
G01 X21.6548 Y6.3358
G01 X21.6618 Y6.3427
G01 X21.7277 Y6.4155
G01 X21.7339 Y6.4230
G01 X21.7924 Y6.5019
G01 X21.7978 Y6.5100
G01 X21.8483 Y6.5942
G01 X21.8529 Y6.6028
G01 X21.8948 Y6.6916
G01 X21.8986 Y6.7006
G01 X21.9317 Y6.7930
G01 X21.9345 Y6.8024
G01 X21.9583 Y6.8976
G01 X21.9603 Y6.9072
G01 X21.9747 Y7.0043
G01 X21.9756 Y7.0141
G01 X21.9804 Y7.1121
G01 X21.9804 Y7.1219
G01 X21.9756 Y7.2199
G01 X21.9747 Y7.2297
G01 X21.9603 Y7.3268
G01 X21.9583 Y7.3364
G01 X21.9345 Y7.4316
G01 X21.9317 Y7.4410
G01 X21.8986 Y7.5334
G01 X21.8948 Y7.5424
G01 X21.8529 Y7.6312
G01 X21.8483 Y7.6398
G01 X21.7978 Y7.7240
G01 X21.7924 Y7.7321
G01 X21.7339 Y7.8110
G01 X21.7277 Y7.8185
G01 X21.6618 Y7.8913
G01 X21.6548 Y7.8982
G01 X21.5821 Y7.9641
G01 X21.5745 Y7.9703
G01 X21.4957 Y8.0288
G01 X21.4875 Y8.0342
G01 X21.4034 Y8.0847
G01 X21.3947 Y8.0893
G01 X21.3060 Y8.1313
G01 X21.2969 Y8.1350
G01 X21.2045 Y8.1681
G01 X21.1951 Y8.1709
G01 X21.0999 Y8.1948
G01 X21.0903 Y8.1967
G01 X20.9933 Y8.2111
G01 X20.9835 Y8.2121
G01 X20.8855 Y8.2169
G01 X20.8757 Y8.2169
G01 X20.7776 Y8.2121
G01 X20.7679 Y8.2111
G01 X20.6708 Y8.1967
G01 X20.6612 Y8.1948
G01 X20.5660 Y8.1709
G01 X20.5566 Y8.1681
G01 X20.4642 Y8.1350
G01 X20.4551 Y8.1313
G01 X20.3664 Y8.0893
G01 X20.3578 Y8.0847
G01 X20.2736 Y8.0342
G01 X20.2654 Y8.0288
G01 X20.1866 Y7.9703
G01 X20.1790 Y7.9641
G01 X20.1063 Y7.8982
G01 X20.0994 Y7.8913
G01 X20.0324 Y7.8173
G01 X13.8047 Y7.8173
G01 X6.9895 Y14.6325
G01 X6.9944 Y14.7321
G01 X6.9944 Y14.7419
G01 X6.9896 Y14.8399
G01 X6.9887 Y14.8497
G01 X6.9743 Y14.9468
G01 X6.9723 Y14.9564
G01 X6.9485 Y15.0516
G01 X6.9456 Y15.0610
G01 X6.9126 Y15.1534
G01 X6.9088 Y15.1624
G01 X6.8669 Y15.2512
G01 X6.8622 Y15.2598
G01 X6.8118 Y15.3440
G01 X6.8063 Y15.3521
G01 X6.7479 Y15.4310
G01 X6.7417 Y15.4385
G01 X6.6758 Y15.5113
G01 X6.6688 Y15.5182
G01 X6.5949 Y15.5851
G01 X6.5949 Y24.3529
G01 X10.8345 Y28.5925
G01 X10.9341 Y28.5876
G01 X10.9439 Y28.5876
G01 X11.0419 Y28.5924
G01 X11.0517 Y28.5933
G01 X11.1488 Y28.6077
G01 X11.1584 Y28.6097
G01 X11.2536 Y28.6335
G01 X11.2630 Y28.6363
G01 X11.3554 Y28.6694
G01 X11.3644 Y28.6732
G01 X11.4532 Y28.7151
G01 X11.4618 Y28.7197
G01 X11.5460 Y28.7702
G01 X11.5541 Y28.7756
G01 X11.6330 Y28.8341
G01 X11.6405 Y28.8403
G01 X11.7133 Y28.9062
G01 X11.7202 Y28.9132
G01 X11.7861 Y28.9859
G01 X11.7923 Y28.9935
G01 X11.8508 Y29.0723
G01 X11.8562 Y29.0805
G01 X11.9067 Y29.1646
G01 X11.9113 Y29.1733
G01 X11.9533 Y29.2620
G01 X11.9570 Y29.2711
G01 X11.9901 Y29.3635
G01 X11.9929 Y29.3729
G01 X12.0168 Y29.4681
G01 X12.0187 Y29.4777
G01 X12.0331 Y29.5747
G01 X12.0341 Y29.5845
G01 X12.0389 Y29.6825
G01 X12.0389 Y29.6923
G01 X12.0341 Y29.7904
G01 X12.0331 Y29.8001
G01 X12.0187 Y29.8972
G01 X12.0168 Y29.9068
G01 X11.9929 Y30.0020
G01 X11.9901 Y30.0114
G01 X11.9570 Y30.1038
G01 X11.9533 Y30.1129
G01 X11.9113 Y30.2016
G01 X11.9067 Y30.2102
G01 X11.8562 Y30.2944
G01 X11.8508 Y30.3026
G01 X11.7923 Y30.3814
G01 X11.7861 Y30.3890
G01 X11.7202 Y30.4617
G01 X11.7133 Y30.4686
G01 X11.6405 Y30.5345
G01 X11.6330 Y30.5408
G01 X11.5541 Y30.5992
G01 X11.5460 Y30.6047
G01 X11.4618 Y30.6551
G01 X11.4532 Y30.6598
G01 X11.3644 Y30.7017
G01 X11.3554 Y30.7055
G01 X11.2630 Y30.7385
G01 X11.2536 Y30.7414
G01 X11.1584 Y30.7652
G01 X11.1488 Y30.7671
G01 X11.0517 Y30.7815
G01 X11.0419 Y30.7825
G01 X10.9439 Y30.7873
G01 X10.9341 Y30.7873
G01 X10.8361 Y30.7825
G01 X10.8263 Y30.7815
G01 X10.7292 Y30.7671
G01 X10.7196 Y30.7652
G01 X10.6244 Y30.7414
G01 X10.6150 Y30.7385
G01 X10.5226 Y30.7055
G01 X10.5136 Y30.7017
G01 X10.4248 Y30.6598
G01 X10.4162 Y30.6551
G01 X10.3320 Y30.6047
G01 X10.3239 Y30.5992
G01 X10.2450 Y30.5408
G01 X10.2375 Y30.5345
G01 X10.1647 Y30.4686
G01 X10.1578 Y30.4617
G01 X10.0919 Y30.3890
G01 X10.0857 Y30.3814
G01 X10.0272 Y30.3026
G01 X10.0218 Y30.2944
G01 X9.9713 Y30.2102
G01 X9.9667 Y30.2016
G01 X9.9247 Y30.1129
G01 X9.9210 Y30.1038
G01 X9.8879 Y30.0114
G01 X9.8851 Y30.0020
G01 X9.8612 Y29.9068
G01 X9.8593 Y29.8972
G01 X9.8449 Y29.8001
G01 X9.8439 Y29.7904
G01 X9.8391 Y29.6923
G01 X9.8391 Y29.6825
G01 X9.8441 Y29.5829
G01 X5.3994 Y25.1382
G01 X5.3564 Y25.0910
G01 X5.3502 Y25.0834
G01 X5.3151 Y25.0361
G01 X5.3097 Y25.0279
G01 X5.2794 Y24.9774
G01 X5.2748 Y24.9688
G01 X5.2496 Y24.9155
G01 X5.2458 Y24.9064
G01 X5.2260 Y24.8510
G01 X5.2231 Y24.8416
G01 X5.2088 Y24.7844
G01 X5.2069 Y24.7748
G01 X5.1983 Y24.7165
G01 X5.1973 Y24.7068
G01 X5.1943 Y24.6430
G01 X5.1943 Y15.5852
G00 Z2.0000
G00 X5.0143 Y15.6651
G01 F60.00
G01 Z-0.0900
G01 F120.00
G01 X4.9994 Y15.6516
G01 X4.9800 Y15.6321
G01 X4.9141 Y15.5594
G01 X4.8966 Y15.5382
G01 X4.8382 Y15.4594
G01 X4.8229 Y15.4365
G01 X4.7725 Y15.3523
G01 X4.7595 Y15.3281
G01 X4.7176 Y15.2394
G01 X4.7070 Y15.2140
G01 X4.6740 Y15.1216
G01 X4.6660 Y15.0953
G01 X4.6422 Y15.0001
G01 X4.6368 Y14.9732
G01 X4.6224 Y14.8761
G01 X4.6197 Y14.8488
G01 X4.6149 Y14.7507
G01 X4.6149 Y14.7233
G01 X4.6197 Y14.6252
G01 X4.6224 Y14.5979
G01 X4.6368 Y14.5008
G01 X4.6422 Y14.4739
G01 X4.6660 Y14.3787
G01 X4.6740 Y14.3524
G01 X4.7070 Y14.2600
G01 X4.7176 Y14.2346
G01 X4.7595 Y14.1459
G01 X4.7725 Y14.1217
G01 X4.8229 Y14.0375
G01 X4.8382 Y14.0146
G01 X4.8966 Y13.9358
G01 X4.9141 Y13.9146
G01 X4.9800 Y13.8419
G01 X4.9994 Y13.8224
G01 X5.0721 Y13.7565
G01 X5.0934 Y13.7391
G01 X5.1722 Y13.6806
G01 X5.1950 Y13.6654
G01 X5.2792 Y13.6149
G01 X5.3034 Y13.6020
G01 X5.3922 Y13.5600
G01 X5.4175 Y13.5495
G01 X5.5099 Y13.5164
G01 X5.5362 Y13.5085
G01 X5.6314 Y13.4846
G01 X5.6584 Y13.4792
G01 X5.7554 Y13.4648
G01 X5.7828 Y13.4622
G01 X5.8808 Y13.4573
G01 X5.9083 Y13.4573
G01 X5.9283 Y13.4583
G01 X12.8921 Y6.4945
G01 X12.9021 Y6.4851
G01 X12.9457 Y6.4455
G01 X12.9670 Y6.4281
G01 X13.0143 Y6.3930
G01 X13.0371 Y6.3777
G01 X13.0877 Y6.3474
G01 X13.1119 Y6.3345
G01 X13.1651 Y6.3093
G01 X13.1905 Y6.2988
G01 X13.2460 Y6.2789
G01 X13.2723 Y6.2709
G01 X13.3294 Y6.2566
G01 X13.3564 Y6.2513
G01 X13.4147 Y6.2426
G01 X13.4420 Y6.2399
G01 X13.5008 Y6.2370
G01 X13.5146 Y6.2367
G01 X19.9525 Y6.2367
G01 X19.9660 Y6.2219
G01 X19.9854 Y6.2024
G01 X20.0581 Y6.1365
G01 X20.0794 Y6.1191
G01 X20.1582 Y6.0606
G01 X20.1810 Y6.0454
G01 X20.2652 Y5.9949
G01 X20.2894 Y5.9820
G01 X20.3782 Y5.9400
G01 X20.4035 Y5.9295
G01 X20.4959 Y5.8964
G01 X20.5222 Y5.8885
G01 X20.6174 Y5.8646
G01 X20.6444 Y5.8592
G01 X20.7415 Y5.8448
G01 X20.7688 Y5.8422
G01 X20.8668 Y5.8373
G01 X20.8943 Y5.8373
G01 X20.9923 Y5.8422
G01 X21.0197 Y5.8448
G01 X21.1167 Y5.8592
G01 X21.1437 Y5.8646
G01 X21.2389 Y5.8885
G01 X21.2652 Y5.8964
G01 X21.3576 Y5.9295
G01 X21.3830 Y5.9400
G01 X21.4717 Y5.9820
G01 X21.4959 Y5.9949
G01 X21.5801 Y6.0454
G01 X21.6029 Y6.0606
G01 X21.6817 Y6.1191
G01 X21.7030 Y6.1365
G01 X21.7757 Y6.2024
G01 X21.7951 Y6.2219
G01 X21.8610 Y6.2946
G01 X21.8785 Y6.3158
G01 X21.9369 Y6.3946
G01 X21.9522 Y6.4175
G01 X22.0026 Y6.5017
G01 X22.0156 Y6.5259
G01 X22.0576 Y6.6146
G01 X22.0681 Y6.6400
G01 X22.1011 Y6.7324
G01 X22.1091 Y6.7587
G01 X22.1330 Y6.8539
G01 X22.1383 Y6.8808
G01 X22.1527 Y6.9779
G01 X22.1554 Y7.0052
G01 X22.1602 Y7.1033
G01 X22.1602 Y7.1307
G01 X22.1554 Y7.2288
G01 X22.1527 Y7.2561
G01 X22.1383 Y7.3532
G01 X22.1330 Y7.3801
G01 X22.1091 Y7.4753
G01 X22.1011 Y7.5016
G01 X22.0681 Y7.5940
G01 X22.0576 Y7.6194
G01 X22.0156 Y7.7081
G01 X22.0026 Y7.7323
G01 X21.9522 Y7.8165
G01 X21.9369 Y7.8394
G01 X21.8785 Y7.9182
G01 X21.8610 Y7.9394
G01 X21.7951 Y8.0121
G01 X21.7757 Y8.0316
G01 X21.7030 Y8.0975
G01 X21.6817 Y8.1149
G01 X21.6029 Y8.1734
G01 X21.5801 Y8.1886
G01 X21.4959 Y8.2391
G01 X21.4717 Y8.2520
G01 X21.3830 Y8.2940
G01 X21.3576 Y8.3045
G01 X21.2652 Y8.3376
G01 X21.2389 Y8.3455
G01 X21.1437 Y8.3694
G01 X21.1167 Y8.3748
G01 X21.0197 Y8.3892
G01 X20.9923 Y8.3918
G01 X20.8943 Y8.3967
G01 X20.8668 Y8.3967
G01 X20.7688 Y8.3918
G01 X20.7415 Y8.3892
G01 X20.6444 Y8.3748
G01 X20.6174 Y8.3694
G01 X20.5222 Y8.3455
G01 X20.4959 Y8.3376
G01 X20.4035 Y8.3045
G01 X20.3782 Y8.2940
G01 X20.2894 Y8.2520
G01 X20.2652 Y8.2391
G01 X20.1810 Y8.1886
G01 X20.1582 Y8.1734
G01 X20.0794 Y8.1149
G01 X20.0581 Y8.0975
G01 X19.9854 Y8.0316
G01 X19.9660 Y8.0121
G01 X19.9525 Y7.9973
G01 X13.8792 Y7.9973
G01 X7.1732 Y14.7033
G01 X7.1742 Y14.7233
G01 X7.1742 Y14.7507
G01 X7.1694 Y14.8488
G01 X7.1667 Y14.8761
G01 X7.1523 Y14.9732
G01 X7.1469 Y15.0001
G01 X7.1231 Y15.0953
G01 X7.1151 Y15.1216
G01 X7.0821 Y15.2140
G01 X7.0715 Y15.2394
G01 X7.0296 Y15.3281
G01 X7.0166 Y15.3523
G01 X6.9662 Y15.4365
G01 X6.9509 Y15.4594
G01 X6.8925 Y15.5382
G01 X6.8750 Y15.5594
G01 X6.8091 Y15.6321
G01 X6.7897 Y15.6516
G01 X6.7749 Y15.6650
G01 X6.7749 Y24.2784
G01 X10.9053 Y28.4088
G01 X10.9253 Y28.4078
G01 X10.9527 Y28.4078
G01 X11.0508 Y28.4126
G01 X11.0781 Y28.4153
G01 X11.1752 Y28.4297
G01 X11.2021 Y28.4350
G01 X11.2973 Y28.4589
G01 X11.3236 Y28.4669
G01 X11.4160 Y28.4999
G01 X11.4414 Y28.5104
G01 X11.5301 Y28.5524
G01 X11.5543 Y28.5654
G01 X11.6385 Y28.6158
G01 X11.6614 Y28.6311
G01 X11.7402 Y28.6895
G01 X11.7614 Y28.7070
G01 X11.8341 Y28.7729
G01 X11.8536 Y28.7923
G01 X11.9195 Y28.8650
G01 X11.9369 Y28.8863
G01 X11.9954 Y28.9651
G01 X12.0106 Y28.9879
G01 X12.0611 Y29.0721
G01 X12.0740 Y29.0963
G01 X12.1160 Y29.1850
G01 X12.1265 Y29.2104
G01 X12.1596 Y29.3028
G01 X12.1675 Y29.3291
G01 X12.1914 Y29.4243
G01 X12.1968 Y29.4513
G01 X12.2112 Y29.5483
G01 X12.2138 Y29.5757
G01 X12.2187 Y29.6737
G01 X12.2187 Y29.7012
G01 X12.2138 Y29.7992
G01 X12.2112 Y29.8265
G01 X12.1968 Y29.9236
G01 X12.1914 Y29.9506
G01 X12.1675 Y30.0458
G01 X12.1596 Y30.0721
G01 X12.1265 Y30.1645
G01 X12.1160 Y30.1898
G01 X12.0740 Y30.2786
G01 X12.0611 Y30.3028
G01 X12.0106 Y30.3870
G01 X11.9954 Y30.4098
G01 X11.9369 Y30.4886
G01 X11.9195 Y30.5099
G01 X11.8536 Y30.5826
G01 X11.8341 Y30.6020
G01 X11.7614 Y30.6679
G01 X11.7402 Y30.6853
G01 X11.6614 Y30.7438
G01 X11.6385 Y30.7591
G01 X11.5543 Y30.8095
G01 X11.5301 Y30.8225
G01 X11.4414 Y30.8644
G01 X11.4160 Y30.8750
G01 X11.3236 Y30.9080
G01 X11.2973 Y30.9160
G01 X11.2021 Y30.9398
G01 X11.1752 Y30.9452
G01 X11.0781 Y30.9596
G01 X11.0508 Y30.9623
G01 X10.9527 Y30.9671
G01 X10.9253 Y30.9671
G01 X10.8272 Y30.9623
G01 X10.7999 Y30.9596
G01 X10.7028 Y30.9452
G01 X10.6759 Y30.9398
G01 X10.5807 Y30.9160
G01 X10.5544 Y30.9080
G01 X10.4620 Y30.8750
G01 X10.4366 Y30.8644
G01 X10.3479 Y30.8225
G01 X10.3237 Y30.8095
G01 X10.2395 Y30.7591
G01 X10.2166 Y30.7438
G01 X10.1378 Y30.6853
G01 X10.1166 Y30.6679
G01 X10.0439 Y30.6020
G01 X10.0244 Y30.5826
G01 X9.9585 Y30.5099
G01 X9.9411 Y30.4886
G01 X9.8826 Y30.4098
G01 X9.8674 Y30.3870
G01 X9.8169 Y30.3028
G01 X9.8040 Y30.2786
G01 X9.7620 Y30.1898
G01 X9.7515 Y30.1645
G01 X9.7184 Y30.0721
G01 X9.7105 Y30.0458
G01 X9.6866 Y29.9506
G01 X9.6812 Y29.9236
G01 X9.6668 Y29.8265
G01 X9.6642 Y29.7992
G01 X9.6593 Y29.7012
G01 X9.6593 Y29.6737
G01 X9.6603 Y29.6537
G01 X5.2721 Y25.2655
G01 X5.2626 Y25.2555
G01 X5.2231 Y25.2119
G01 X5.2056 Y25.1906
G01 X5.1706 Y25.1433
G01 X5.1553 Y25.1205
G01 X5.1250 Y25.0699
G01 X5.1120 Y25.0457
G01 X5.0869 Y24.9925
G01 X5.0763 Y24.9671
G01 X5.0565 Y24.9116
G01 X5.0485 Y24.8853
G01 X5.0342 Y24.8282
G01 X5.0288 Y24.8012
G01 X5.0202 Y24.7429
G01 X5.0175 Y24.7156
G01 X5.0146 Y24.6568
G01 X5.0143 Y24.6430
G01 X5.0143 Y15.6651
G00 Z2.0000
G00 X4.8343 Y15.7394
G01 F60.00
G01 Z-0.0900
G01 F120.00
G01 X4.7807 Y15.6803
G01 X4.7521 Y15.6454
G01 X4.6936 Y15.5666
G01 X4.6685 Y15.5291
G01 X4.6181 Y15.4449
G01 X4.5968 Y15.4051
G01 X4.5548 Y15.3164
G01 X4.5376 Y15.2747
G01 X4.5045 Y15.1823
G01 X4.4914 Y15.1391
G01 X4.4676 Y15.0439
G01 X4.4587 Y14.9996
G01 X4.4443 Y14.9025
G01 X4.4399 Y14.8576
G01 X4.4351 Y14.7596
G01 X4.4351 Y14.7144
G01 X4.4399 Y14.6164
G01 X4.4443 Y14.5715
G01 X4.4587 Y14.4744
G01 X4.4676 Y14.4301
G01 X4.4914 Y14.3349
G01 X4.5045 Y14.2917
G01 X4.5376 Y14.1993
G01 X4.5548 Y14.1576
G01 X4.5968 Y14.0689
G01 X4.6181 Y14.0291
G01 X4.6685 Y13.9449
G01 X4.6936 Y13.9074
G01 X4.7521 Y13.8286
G01 X4.7807 Y13.7937
G01 X4.8466 Y13.7210
G01 X4.8785 Y13.6891
G01 X4.9512 Y13.6232
G01 X4.9861 Y13.5945
G01 X5.0650 Y13.5361
G01 X5.1025 Y13.5110
G01 X5.1867 Y13.4605
G01 X5.2265 Y13.4392
G01 X5.3152 Y13.3973
G01 X5.3569 Y13.3800
G01 X5.4493 Y13.3469
G01 X5.4925 Y13.3338
G01 X5.5877 Y13.3100
G01 X5.6320 Y13.3012
G01 X5.7290 Y13.2868
G01 X5.7740 Y13.2824
G01 X5.8536 Y13.2785
G01 X12.7648 Y6.3673
G01 X12.7812 Y6.3517
G01 X12.8248 Y6.3121
G01 X12.8597 Y6.2835
G01 X12.9070 Y6.2484
G01 X12.9446 Y6.2233
G01 X12.9951 Y6.1930
G01 X13.0349 Y6.1717
G01 X13.0882 Y6.1466
G01 X13.1299 Y6.1293
G01 X13.1854 Y6.1094
G01 X13.2286 Y6.0963
G01 X13.2857 Y6.0820
G01 X13.3300 Y6.0732
G01 X13.3882 Y6.0646
G01 X13.4332 Y6.0601
G01 X13.4920 Y6.0573
G01 X13.5146 Y6.0567
G01 X19.8782 Y6.0567
G01 X19.9372 Y6.0032
G01 X19.9721 Y5.9745
G01 X20.0510 Y5.9161
G01 X20.0885 Y5.8910
G01 X20.1727 Y5.8405
G01 X20.2125 Y5.8192
G01 X20.3012 Y5.7773
G01 X20.3429 Y5.7600
G01 X20.4353 Y5.7269
G01 X20.4785 Y5.7138
G01 X20.5737 Y5.6900
G01 X20.6180 Y5.6812
G01 X20.7150 Y5.6668
G01 X20.7600 Y5.6624
G01 X20.8580 Y5.6576
G01 X20.9031 Y5.6576
G01 X21.0011 Y5.6624
G01 X21.0461 Y5.6668
G01 X21.1431 Y5.6812
G01 X21.1874 Y5.6900
G01 X21.2826 Y5.7138
G01 X21.3258 Y5.7269
G01 X21.4182 Y5.7600
G01 X21.4599 Y5.7773
G01 X21.5486 Y5.8192
G01 X21.5884 Y5.8405
G01 X21.6726 Y5.8910
G01 X21.7102 Y5.9161
G01 X21.7890 Y5.9745
G01 X21.8239 Y6.0032
G01 X21.8966 Y6.0691
G01 X21.9285 Y6.1010
G01 X21.9944 Y6.1737
G01 X22.0230 Y6.2086
G01 X22.0815 Y6.2874
G01 X22.1066 Y6.3249
G01 X22.1570 Y6.4091
G01 X22.1783 Y6.4489
G01 X22.2203 Y6.5376
G01 X22.2375 Y6.5793
G01 X22.2706 Y6.6717
G01 X22.2837 Y6.7149
G01 X22.3076 Y6.8101
G01 X22.3164 Y6.8544
G01 X22.3308 Y6.9515
G01 X22.3352 Y6.9964
G01 X22.3400 Y7.0944
G01 X22.3400 Y7.1396
G01 X22.3352 Y7.2376
G01 X22.3308 Y7.2825
G01 X22.3164 Y7.3796
G01 X22.3076 Y7.4239
G01 X22.2837 Y7.5191
G01 X22.2706 Y7.5623
G01 X22.2375 Y7.6547
G01 X22.2203 Y7.6964
G01 X22.1783 Y7.7851
G01 X22.1570 Y7.8249
G01 X22.1066 Y7.9091
G01 X22.0815 Y7.9466
G01 X22.0230 Y8.0254
G01 X21.9944 Y8.0603
G01 X21.9285 Y8.1330
G01 X21.8966 Y8.1649
G01 X21.8239 Y8.2308
G01 X21.7890 Y8.2595
G01 X21.7102 Y8.3179
G01 X21.6726 Y8.3430
G01 X21.5884 Y8.3935
G01 X21.5486 Y8.4148
G01 X21.4599 Y8.4567
G01 X21.4182 Y8.4740
G01 X21.3258 Y8.5071
G01 X21.2826 Y8.5202
G01 X21.1874 Y8.5440
G01 X21.1431 Y8.5528
G01 X21.0461 Y8.5672
G01 X21.0011 Y8.5716
G01 X20.9031 Y8.5764
G01 X20.8580 Y8.5764
G01 X20.7600 Y8.5716
G01 X20.7150 Y8.5672
G01 X20.6180 Y8.5528
G01 X20.5737 Y8.5440
G01 X20.4785 Y8.5202
G01 X20.4353 Y8.5071
G01 X20.3429 Y8.4740
G01 X20.3012 Y8.4567
G01 X20.2125 Y8.4148
G01 X20.1727 Y8.3935
G01 X20.0885 Y8.3430
G01 X20.0510 Y8.3179
G01 X19.9721 Y8.2595
G01 X19.9372 Y8.2308
G01 X19.8782 Y8.1773
G01 X13.9538 Y8.1773
G01 X7.3531 Y14.7780
G01 X7.3492 Y14.8576
G01 X7.3448 Y14.9025
G01 X7.3304 Y14.9996
G01 X7.3215 Y15.0439
G01 X7.2977 Y15.1391
G01 X7.2846 Y15.1823
G01 X7.2515 Y15.2747
G01 X7.2343 Y15.3164
G01 X7.1923 Y15.4051
G01 X7.1710 Y15.4449
G01 X7.1206 Y15.5291
G01 X7.0955 Y15.5666
G01 X7.0370 Y15.6454
G01 X7.0084 Y15.6803
G01 X6.9549 Y15.7394
G01 X6.9549 Y24.2038
G01 X10.9799 Y28.2289
G01 X11.0596 Y28.2328
G01 X11.1045 Y28.2372
G01 X11.2016 Y28.2516
G01 X11.2459 Y28.2604
G01 X11.3411 Y28.2843
G01 X11.3843 Y28.2974
G01 X11.4767 Y28.3305
G01 X11.5184 Y28.3477
G01 X11.6071 Y28.3897
G01 X11.6469 Y28.4110
G01 X11.7311 Y28.4614
G01 X11.7686 Y28.4865
G01 X11.8474 Y28.5450
G01 X11.8823 Y28.5736
G01 X11.9550 Y28.6395
G01 X11.9869 Y28.6714
G01 X12.0528 Y28.7441
G01 X12.0815 Y28.7790
G01 X12.1399 Y28.8578
G01 X12.1650 Y28.8954
G01 X12.2155 Y28.9796
G01 X12.2368 Y29.0194
G01 X12.2787 Y29.1081
G01 X12.2960 Y29.1498
G01 X12.3291 Y29.2422
G01 X12.3422 Y29.2854
G01 X12.3660 Y29.3806
G01 X12.3748 Y29.4249
G01 X12.3892 Y29.5219
G01 X12.3936 Y29.5669
G01 X12.3984 Y29.6649
G01 X12.3984 Y29.7100
G01 X12.3936 Y29.8080
G01 X12.3892 Y29.8530
G01 X12.3748 Y29.9500
G01 X12.3660 Y29.9943
G01 X12.3422 Y30.0895
G01 X12.3291 Y30.1327
G01 X12.2960 Y30.2251
G01 X12.2787 Y30.2668
G01 X12.2368 Y30.3555
G01 X12.2155 Y30.3953
G01 X12.1650 Y30.4795
G01 X12.1399 Y30.5170
G01 X12.0815 Y30.5959
G01 X12.0528 Y30.6308
G01 X11.9869 Y30.7035
G01 X11.9550 Y30.7354
G01 X11.8823 Y30.8013
G01 X11.8474 Y30.8299
G01 X11.7686 Y30.8884
G01 X11.7311 Y30.9135
G01 X11.6469 Y30.9639
G01 X11.6071 Y30.9852
G01 X11.5184 Y31.0272
G01 X11.4767 Y31.0444
G01 X11.3843 Y31.0775
G01 X11.3411 Y31.0906
G01 X11.2459 Y31.1144
G01 X11.2016 Y31.1232
G01 X11.1045 Y31.1376
G01 X11.0596 Y31.1421
G01 X10.9616 Y31.1469
G01 X10.9164 Y31.1469
G01 X10.8184 Y31.1421
G01 X10.7735 Y31.1376
G01 X10.6764 Y31.1232
G01 X10.6321 Y31.1144
G01 X10.5369 Y31.0906
G01 X10.4937 Y31.0775
G01 X10.4013 Y31.0444
G01 X10.3596 Y31.0272
G01 X10.2709 Y30.9852
G01 X10.2311 Y30.9639
G01 X10.1469 Y30.9135
G01 X10.1094 Y30.8884
G01 X10.0306 Y30.8299
G01 X9.9957 Y30.8013
G01 X9.9230 Y30.7354
G01 X9.8911 Y30.7035
G01 X9.8252 Y30.6308
G01 X9.7965 Y30.5959
G01 X9.7381 Y30.5170
G01 X9.7130 Y30.4795
G01 X9.6625 Y30.3953
G01 X9.6412 Y30.3555
G01 X9.5993 Y30.2668
G01 X9.5820 Y30.2251
G01 X9.5489 Y30.1327
G01 X9.5358 Y30.0895
G01 X9.5120 Y29.9943
G01 X9.5032 Y29.9500
G01 X9.4888 Y29.8530
G01 X9.4844 Y29.8080
G01 X9.4805 Y29.7284
G01 X5.1448 Y25.3928
G01 X5.1293 Y25.3764
G01 X5.0897 Y25.3328
G01 X5.0611 Y25.2979
G01 X5.0260 Y25.2506
G01 X5.0009 Y25.2130
G01 X4.9706 Y25.1625
G01 X4.9493 Y25.1227
G01 X4.9241 Y25.0694
G01 X4.9069 Y25.0277
G01 X4.8870 Y24.9722
G01 X4.8739 Y24.9290
G01 X4.8596 Y24.8719
G01 X4.8508 Y24.8276
G01 X4.8421 Y24.7694
G01 X4.8377 Y24.7244
G01 X4.8348 Y24.6656
G01 X4.8343 Y24.6430
G01 X4.8343 Y15.7394
G00 Z2.0000
G00 X4.6543 Y15.8089
G01 F60.00
G01 Z-0.0900
G01 F120.00
G01 X4.6473 Y15.8012
G01 X4.6075 Y15.7526
G01 X4.5490 Y15.6738
G01 X4.5141 Y15.6216
G01 X4.4637 Y15.5374
G01 X4.4341 Y15.4820
G01 X4.3921 Y15.3933
G01 X4.3681 Y15.3353
G01 X4.3350 Y15.2429
G01 X4.3168 Y15.1828
G01 X4.2929 Y15.0876
G01 X4.2807 Y15.0260
G01 X4.2663 Y14.9289
G01 X4.2601 Y14.8664
G01 X4.2553 Y14.7684
G01 X4.2553 Y14.7056
G01 X4.2601 Y14.6076
G01 X4.2663 Y14.5451
G01 X4.2807 Y14.4480
G01 X4.2929 Y14.3864
G01 X4.3168 Y14.2912
G01 X4.3350 Y14.2311
G01 X4.3681 Y14.1387
G01 X4.3921 Y14.0807
G01 X4.4341 Y13.9920
G01 X4.4637 Y13.9366
G01 X4.5141 Y13.8524
G01 X4.5490 Y13.8002
G01 X4.6075 Y13.7214
G01 X4.6473 Y13.6728
G01 X4.7132 Y13.6001
G01 X4.7576 Y13.5557
G01 X4.8304 Y13.4898
G01 X4.8789 Y13.4499
G01 X4.9577 Y13.3915
G01 X5.0100 Y13.3566
G01 X5.0941 Y13.3061
G01 X5.1495 Y13.2765
G01 X5.2382 Y13.2346
G01 X5.2963 Y13.2105
G01 X5.3887 Y13.1775
G01 X5.4488 Y13.1592
G01 X5.5440 Y13.1354
G01 X5.6056 Y13.1231
G01 X5.7026 Y13.1087
G01 X5.7651 Y13.1026
G01 X5.7755 Y13.1021
G01 X12.6376 Y6.2400
G01 X12.6603 Y6.2183
G01 X12.7040 Y6.1788
G01 X12.7525 Y6.1389
G01 X12.7998 Y6.1038
G01 X12.8520 Y6.0689
G01 X12.9026 Y6.0386
G01 X12.9580 Y6.0090
G01 X13.0112 Y5.9838
G01 X13.0692 Y5.9598
G01 X13.1247 Y5.9400
G01 X13.1848 Y5.9217
G01 X13.2420 Y5.9074
G01 X13.3036 Y5.8952
G01 X13.3618 Y5.8865
G01 X13.4243 Y5.8804
G01 X13.4832 Y5.8775
G01 X13.5146 Y5.8767
G01 X19.8087 Y5.8767
G01 X19.8164 Y5.8698
G01 X19.8649 Y5.8299
G01 X19.9437 Y5.7715
G01 X19.9960 Y5.7366
G01 X20.0801 Y5.6861
G01 X20.1355 Y5.6565
G01 X20.2242 Y5.6146
G01 X20.2823 Y5.5905
G01 X20.3747 Y5.5575
G01 X20.4348 Y5.5392
G01 X20.5300 Y5.5154
G01 X20.5916 Y5.5031
G01 X20.6886 Y5.4887
G01 X20.7511 Y5.4826
G01 X20.8492 Y5.4778
G01 X20.9120 Y5.4778
G01 X21.0100 Y5.4826
G01 X21.0725 Y5.4887
G01 X21.1696 Y5.5031
G01 X21.2312 Y5.5154
G01 X21.3264 Y5.5392
G01 X21.3865 Y5.5575
G01 X21.4789 Y5.5905
G01 X21.5369 Y5.6146
G01 X21.6256 Y5.6565
G01 X21.6810 Y5.6861
G01 X21.7652 Y5.7366
G01 X21.8174 Y5.7715
G01 X21.8962 Y5.8299
G01 X21.9448 Y5.8698
G01 X22.0175 Y5.9357
G01 X22.0619 Y5.9801
G01 X22.1278 Y6.0528
G01 X22.1676 Y6.1014
G01 X22.2261 Y6.1802
G01 X22.2610 Y6.2324
G01 X22.3114 Y6.3166
G01 X22.3410 Y6.3720
G01 X22.3830 Y6.4607
G01 X22.4070 Y6.5187
G01 X22.4401 Y6.6111
G01 X22.4583 Y6.6712
G01 X22.4822 Y6.7664
G01 X22.4944 Y6.8280
G01 X22.5088 Y6.9251
G01 X22.5150 Y6.9876
G01 X22.5198 Y7.0856
G01 X22.5198 Y7.1484
G01 X22.5150 Y7.2464
G01 X22.5088 Y7.3089
G01 X22.4944 Y7.4060
G01 X22.4822 Y7.4676
G01 X22.4583 Y7.5628
G01 X22.4401 Y7.6229
G01 X22.4070 Y7.7153
G01 X22.3830 Y7.7733
G01 X22.3410 Y7.8620
G01 X22.3114 Y7.9174
G01 X22.2610 Y8.0016
G01 X22.2261 Y8.0538
G01 X22.1676 Y8.1326
G01 X22.1278 Y8.1812
G01 X22.0619 Y8.2539
G01 X22.0175 Y8.2983
G01 X21.9448 Y8.3642
G01 X21.8962 Y8.4041
G01 X21.8174 Y8.4625
G01 X21.7652 Y8.4974
G01 X21.6810 Y8.5479
G01 X21.6256 Y8.5775
G01 X21.5369 Y8.6194
G01 X21.4789 Y8.6435
G01 X21.3865 Y8.6765
G01 X21.3264 Y8.6948
G01 X21.2312 Y8.7186
G01 X21.1696 Y8.7309
G01 X21.0725 Y8.7453
G01 X21.0100 Y8.7514
G01 X20.9120 Y8.7562
G01 X20.8492 Y8.7562
G01 X20.7511 Y8.7514
G01 X20.6886 Y8.7453
G01 X20.5916 Y8.7309
G01 X20.5300 Y8.7186
G01 X20.4348 Y8.6948
G01 X20.3747 Y8.6765
G01 X20.2823 Y8.6435
G01 X20.2242 Y8.6194
G01 X20.1355 Y8.5775
G01 X20.0801 Y8.5479
G01 X19.9960 Y8.4974
G01 X19.9437 Y8.4625
G01 X19.8649 Y8.4041
G01 X19.8164 Y8.3642
G01 X19.8087 Y8.3573
G01 X14.0283 Y8.3573
G01 X7.5295 Y14.8562
G01 X7.5290 Y14.8664
G01 X7.5228 Y14.9289
G01 X7.5084 Y15.0260
G01 X7.4962 Y15.0876
G01 X7.4723 Y15.1828
G01 X7.4541 Y15.2429
G01 X7.4210 Y15.3353
G01 X7.3970 Y15.3933
G01 X7.3550 Y15.4820
G01 X7.3254 Y15.5374
G01 X7.2750 Y15.6216
G01 X7.2401 Y15.6738
G01 X7.1816 Y15.7526
G01 X7.1418 Y15.8012
G01 X7.1349 Y15.8088
G01 X7.1349 Y24.1293
G01 X11.0581 Y28.0525
G01 X11.0684 Y28.0530
G01 X11.1309 Y28.0592
G01 X11.2280 Y28.0736
G01 X11.2896 Y28.0858
G01 X11.3848 Y28.1097
G01 X11.4449 Y28.1279
G01 X11.5373 Y28.1610
G01 X11.5953 Y28.1850
G01 X11.6840 Y28.2270
G01 X11.7394 Y28.2566
G01 X11.8236 Y28.3070
G01 X11.8758 Y28.3419
G01 X11.9546 Y28.4004
G01 X12.0032 Y28.4402
G01 X12.0759 Y28.5061
G01 X12.1203 Y28.5505
G01 X12.1862 Y28.6232
G01 X12.2261 Y28.6718
G01 X12.2845 Y28.7506
G01 X12.3194 Y28.8028
G01 X12.3699 Y28.8870
G01 X12.3995 Y28.9424
G01 X12.4414 Y29.0311
G01 X12.4655 Y29.0891
G01 X12.4985 Y29.1815
G01 X12.5168 Y29.2416
G01 X12.5406 Y29.3368
G01 X12.5529 Y29.3984
G01 X12.5673 Y29.4955
G01 X12.5734 Y29.5580
G01 X12.5782 Y29.6560
G01 X12.5782 Y29.7188
G01 X12.5734 Y29.8169
G01 X12.5673 Y29.8794
G01 X12.5529 Y29.9764
G01 X12.5406 Y30.0380
G01 X12.5168 Y30.1332
G01 X12.4985 Y30.1933
G01 X12.4655 Y30.2857
G01 X12.4414 Y30.3438
G01 X12.3995 Y30.4325
G01 X12.3699 Y30.4879
G01 X12.3194 Y30.5720
G01 X12.2845 Y30.6243
G01 X12.2261 Y30.7031
G01 X12.1862 Y30.7516
G01 X12.1203 Y30.8243
G01 X12.0759 Y30.8688
G01 X12.0032 Y30.9347
G01 X11.9546 Y30.9745
G01 X11.8758 Y31.0330
G01 X11.8236 Y31.0679
G01 X11.7394 Y31.1183
G01 X11.6840 Y31.1479
G01 X11.5953 Y31.1899
G01 X11.5373 Y31.2139
G01 X11.4449 Y31.2470
G01 X11.3848 Y31.2652
G01 X11.2896 Y31.2890
G01 X11.2280 Y31.3013
G01 X11.1309 Y31.3157
G01 X11.0684 Y31.3219
G01 X10.9704 Y31.3267
G01 X10.9076 Y31.3267
G01 X10.8096 Y31.3219
G01 X10.7471 Y31.3157
G01 X10.6500 Y31.3013
G01 X10.5884 Y31.2890
G01 X10.4932 Y31.2652
G01 X10.4331 Y31.2470
G01 X10.3407 Y31.2139
G01 X10.2827 Y31.1899
G01 X10.1940 Y31.1479
G01 X10.1386 Y31.1183
G01 X10.0544 Y31.0679
G01 X10.0022 Y31.0330
G01 X9.9234 Y30.9745
G01 X9.8748 Y30.9347
G01 X9.8021 Y30.8688
G01 X9.7577 Y30.8243
G01 X9.6918 Y30.7516
G01 X9.6519 Y30.7031
G01 X9.5935 Y30.6243
G01 X9.5586 Y30.5720
G01 X9.5081 Y30.4879
G01 X9.4785 Y30.4325
G01 X9.4366 Y30.3438
G01 X9.4125 Y30.2857
G01 X9.3795 Y30.1933
G01 X9.3612 Y30.1332
G01 X9.3374 Y30.0380
G01 X9.3251 Y29.9764
G01 X9.3107 Y29.8794
G01 X9.3046 Y29.8169
G01 X9.3041 Y29.8066
G01 X5.0176 Y25.5200
G01 X4.9959 Y25.4973
G01 X4.9563 Y25.4536
G01 X4.9165 Y25.4051
G01 X4.8814 Y25.3578
G01 X4.8465 Y25.3056
G01 X4.8162 Y25.2550
G01 X4.7866 Y25.1996
G01 X4.7614 Y25.1464
G01 X4.7374 Y25.0884
G01 X4.7175 Y25.0329
G01 X4.6993 Y24.9728
G01 X4.6850 Y24.9156
G01 X4.6727 Y24.8540
G01 X4.6641 Y24.7958
G01 X4.6579 Y24.7333
G01 X4.6551 Y24.6744
G01 X4.6543 Y24.6430
G01 X4.6543 Y15.8089
G00 Z2.0000
G00 X4.4743 Y15.8737
G01 F60.00
G01 Z-0.0900
G01 F120.00
G01 X4.4629 Y15.8599
G01 X4.4045 Y15.7810
G01 X4.3597 Y15.7141
G01 X4.3093 Y15.6300
G01 X4.2714 Y15.5590
G01 X4.2294 Y15.4703
G01 X4.1986 Y15.3959
G01 X4.1655 Y15.3035
G01 X4.1422 Y15.2265
G01 X4.1183 Y15.1313
G01 X4.1026 Y15.0524
G01 X4.0882 Y14.9553
G01 X4.0804 Y14.8753
G01 X4.0755 Y14.7772
G01 X4.0755 Y14.6968
G01 X4.0804 Y14.5987
G01 X4.0882 Y14.5187
G01 X4.1026 Y14.4216
G01 X4.1183 Y14.3427
G01 X4.1422 Y14.2475
G01 X4.1655 Y14.1705
G01 X4.1986 Y14.0781
G01 X4.2294 Y14.0037
G01 X4.2714 Y13.9150
G01 X4.3093 Y13.8440
G01 X4.3597 Y13.7599
G01 X4.4045 Y13.6930
G01 X4.4629 Y13.6141
G01 X4.5140 Y13.5519
G01 X4.5799 Y13.4792
G01 X4.6368 Y13.4223
G01 X4.7095 Y13.3564
G01 X4.7717 Y13.3054
G01 X4.8505 Y13.2469
G01 X4.9174 Y13.2022
G01 X5.0016 Y13.1517
G01 X5.0726 Y13.1138
G01 X5.1613 Y13.0718
G01 X5.2356 Y13.0411
G01 X5.3280 Y13.0080
G01 X5.4050 Y12.9846
G01 X5.5002 Y12.9608
G01 X5.5791 Y12.9451
G01 X5.6762 Y12.9307
G01 X5.6940 Y12.9289
G01 X12.5103 Y6.1127
G01 X12.5394 Y6.0849
G01 X12.5831 Y6.0454
G01 X12.6453 Y5.9943
G01 X12.6926 Y5.9592
G01 X12.7595 Y5.9145
G01 X12.8100 Y5.8842
G01 X12.8810 Y5.8463
G01 X12.9343 Y5.8211
G01 X13.0086 Y5.7903
G01 X13.0641 Y5.7705
G01 X13.1411 Y5.7471
G01 X13.1982 Y5.7328
G01 X13.2771 Y5.7171
G01 X13.3354 Y5.7085
G01 X13.4155 Y5.7006
G01 X13.4743 Y5.6977
G01 X13.5146 Y5.6967
G01 X19.7439 Y5.6967
G01 X19.7577 Y5.6854
G01 X19.8365 Y5.6269
G01 X19.9034 Y5.5822
G01 X19.9876 Y5.5317
G01 X20.0586 Y5.4938
G01 X20.1473 Y5.4518
G01 X20.2216 Y5.4211
G01 X20.3140 Y5.3880
G01 X20.3910 Y5.3646
G01 X20.4862 Y5.3408
G01 X20.5652 Y5.3251
G01 X20.6622 Y5.3107
G01 X20.7423 Y5.3028
G01 X20.8403 Y5.2980
G01 X20.9208 Y5.2980
G01 X21.0188 Y5.3028
G01 X21.0989 Y5.3107
G01 X21.1960 Y5.3251
G01 X21.2749 Y5.3408
G01 X21.3701 Y5.3646
G01 X21.4471 Y5.3880
G01 X21.5395 Y5.4211
G01 X21.6138 Y5.4518
G01 X21.7026 Y5.4938
G01 X21.7735 Y5.5317
G01 X21.8577 Y5.5822
G01 X21.9246 Y5.6269
G01 X22.0034 Y5.6854
G01 X22.0656 Y5.7364
G01 X22.1383 Y5.8023
G01 X22.1952 Y5.8592
G01 X22.2612 Y5.9319
G01 X22.3122 Y5.9941
G01 X22.3707 Y6.0730
G01 X22.4154 Y6.1399
G01 X22.4658 Y6.2240
G01 X22.5038 Y6.2950
G01 X22.5457 Y6.3837
G01 X22.5765 Y6.4581
G01 X22.6096 Y6.5505
G01 X22.6329 Y6.6275
G01 X22.6568 Y6.7227
G01 X22.6725 Y6.8016
G01 X22.6869 Y6.8987
G01 X22.6948 Y6.9787
G01 X22.6996 Y7.0768
G01 X22.6996 Y7.1572
G01 X22.6948 Y7.2553
G01 X22.6869 Y7.3353
G01 X22.6725 Y7.4324
G01 X22.6568 Y7.5113
G01 X22.6329 Y7.6065
G01 X22.6096 Y7.6835
G01 X22.5765 Y7.7759
G01 X22.5457 Y7.8503
G01 X22.5038 Y7.9390
G01 X22.4658 Y8.0100
G01 X22.4154 Y8.0941
G01 X22.3707 Y8.1610
G01 X22.3122 Y8.2399
G01 X22.2612 Y8.3021
G01 X22.1952 Y8.3748
G01 X22.1383 Y8.4317
G01 X22.0656 Y8.4976
G01 X22.0034 Y8.5486
G01 X21.9246 Y8.6071
G01 X21.8577 Y8.6518
G01 X21.7735 Y8.7023
G01 X21.7026 Y8.7402
G01 X21.6138 Y8.7822
G01 X21.5395 Y8.8129
G01 X21.4471 Y8.8460
G01 X21.3701 Y8.8694
G01 X21.2749 Y8.8932
G01 X21.1960 Y8.9089
G01 X21.0989 Y8.9233
G01 X21.0188 Y8.9312
G01 X20.9208 Y8.9360
G01 X20.8403 Y8.9360
G01 X20.7423 Y8.9312
G01 X20.6622 Y8.9233
G01 X20.5652 Y8.9089
G01 X20.4862 Y8.8932
G01 X20.3910 Y8.8694
G01 X20.3140 Y8.8460
G01 X20.2216 Y8.8129
G01 X20.1473 Y8.7822
G01 X20.0586 Y8.7402
G01 X19.9876 Y8.7023
G01 X19.9034 Y8.6518
G01 X19.8365 Y8.6071
G01 X19.7577 Y8.5486
G01 X19.7439 Y8.5373
G01 X14.1029 Y8.5373
G01 X7.7026 Y14.9376
G01 X7.7009 Y14.9553
G01 X7.6865 Y15.0524
G01 X7.6708 Y15.1313
G01 X7.6469 Y15.2265
G01 X7.6236 Y15.3035
G01 X7.5905 Y15.3959
G01 X7.5597 Y15.4703
G01 X7.5177 Y15.5590
G01 X7.4798 Y15.6300
G01 X7.4294 Y15.7141
G01 X7.3846 Y15.7810
G01 X7.3262 Y15.8599
G01 X7.3149 Y15.8736
G01 X7.3149 Y24.0547
G01 X11.1395 Y27.8794
G01 X11.1573 Y27.8811
G01 X11.2544 Y27.8955
G01 X11.3333 Y27.9112
G01 X11.4285 Y27.9351
G01 X11.5055 Y27.9584
G01 X11.5979 Y27.9915
G01 X11.6723 Y28.0223
G01 X11.7610 Y28.0642
G01 X11.8320 Y28.1022
G01 X11.9161 Y28.1526
G01 X11.9830 Y28.1973
G01 X12.0619 Y28.2558
G01 X12.1241 Y28.3068
G01 X12.1968 Y28.3728
G01 X12.2537 Y28.4297
G01 X12.3196 Y28.5024
G01 X12.3706 Y28.5646
G01 X12.4291 Y28.6434
G01 X12.4738 Y28.7103
G01 X12.5243 Y28.7945
G01 X12.5622 Y28.8654
G01 X12.6042 Y28.9542
G01 X12.6349 Y29.0285
G01 X12.6680 Y29.1209
G01 X12.6914 Y29.1979
G01 X12.7152 Y29.2931
G01 X12.7309 Y29.3720
G01 X12.7453 Y29.4691
G01 X12.7532 Y29.5492
G01 X12.7580 Y29.6472
G01 X12.7580 Y29.7277
G01 X12.7532 Y29.8257
G01 X12.7453 Y29.9058
G01 X12.7309 Y30.0028
G01 X12.7152 Y30.0818
G01 X12.6914 Y30.1770
G01 X12.6680 Y30.2540
G01 X12.6349 Y30.3464
G01 X12.6042 Y30.4207
G01 X12.5622 Y30.5094
G01 X12.5243 Y30.5804
G01 X12.4738 Y30.6646
G01 X12.4291 Y30.7315
G01 X12.3706 Y30.8103
G01 X12.3196 Y30.8725
G01 X12.2537 Y30.9452
G01 X12.1968 Y31.0021
G01 X12.1241 Y31.0680
G01 X12.0619 Y31.1191
G01 X11.9830 Y31.1775
G01 X11.9161 Y31.2222
G01 X11.8320 Y31.2727
G01 X11.7610 Y31.3106
G01 X11.6723 Y31.3526
G01 X11.5979 Y31.3834
G01 X11.5055 Y31.4164
G01 X11.4285 Y31.4398
G01 X11.3333 Y31.4637
G01 X11.2544 Y31.4793
G01 X11.1573 Y31.4937
G01 X11.0773 Y31.5016
G01 X10.9792 Y31.5065
G01 X10.8988 Y31.5065
G01 X10.8007 Y31.5016
G01 X10.7207 Y31.4937
G01 X10.6236 Y31.4793
G01 X10.5447 Y31.4637
G01 X10.4495 Y31.4398
G01 X10.3725 Y31.4164
G01 X10.2801 Y31.3834
G01 X10.2057 Y31.3526
G01 X10.1170 Y31.3106
G01 X10.0460 Y31.2727
G01 X9.9619 Y31.2222
G01 X9.8950 Y31.1775
G01 X9.8161 Y31.1191
G01 X9.7539 Y31.0680
G01 X9.6812 Y31.0021
G01 X9.6243 Y30.9452
G01 X9.5584 Y30.8725
G01 X9.5074 Y30.8103
G01 X9.4489 Y30.7315
G01 X9.4042 Y30.6646
G01 X9.3537 Y30.5804
G01 X9.3158 Y30.5094
G01 X9.2738 Y30.4207
G01 X9.2431 Y30.3464
G01 X9.2100 Y30.2540
G01 X9.1866 Y30.1770
G01 X9.1628 Y30.0818
G01 X9.1471 Y30.0028
G01 X9.1327 Y29.9058
G01 X9.1309 Y29.8880
G01 X4.8903 Y25.6473
G01 X4.8625 Y25.6182
G01 X4.8230 Y25.5745
G01 X4.7719 Y25.5123
G01 X4.7368 Y25.4650
G01 X4.6921 Y25.3981
G01 X4.6618 Y25.3476
G01 X4.6239 Y25.2766
G01 X4.5987 Y25.2233
G01 X4.5679 Y25.1490
G01 X4.5481 Y25.0935
G01 X4.5247 Y25.0165
G01 X4.5104 Y24.9594
G01 X4.4947 Y24.8805
G01 X4.4860 Y24.8222
G01 X4.4782 Y24.7421
G01 X4.4753 Y24.6833
G01 X4.4743 Y24.6430
G01 X4.4743 Y15.8737
G00 Z2.0000
G00 X9.5187 Y15.9171
G01 F60.00
G01 Z-0.0900
G01 F120.00
G01 X9.4718 Y15.8599
G01 X9.4133 Y15.7810
G01 X9.3686 Y15.7141
G01 X9.3182 Y15.6300
G01 X9.2802 Y15.5590
G01 X9.2383 Y15.4703
G01 X9.2075 Y15.3959
G01 X9.1744 Y15.3035
G01 X9.1511 Y15.2265
G01 X9.1272 Y15.1313
G01 X9.1115 Y15.0524
G01 X9.0971 Y14.9553
G01 X9.0892 Y14.8753
G01 X9.0844 Y14.7772
G01 X9.0844 Y14.6968
G01 X9.0892 Y14.5987
G01 X9.0971 Y14.5187
G01 X9.1115 Y14.4216
G01 X9.1272 Y14.3427
G01 X9.1511 Y14.2475
G01 X9.1744 Y14.1705
G01 X9.2075 Y14.0781
G01 X9.2383 Y14.0037
G01 X9.2802 Y13.9150
G01 X9.3182 Y13.8440
G01 X9.3686 Y13.7599
G01 X9.4133 Y13.6930
G01 X9.4718 Y13.6141
G01 X9.5228 Y13.5519
G01 X9.5887 Y13.4792
G01 X9.6456 Y13.4223
G01 X9.7184 Y13.3564
G01 X9.7806 Y13.3054
G01 X9.8594 Y13.2469
G01 X9.9263 Y13.2022
G01 X10.0105 Y13.1517
G01 X10.0814 Y13.1138
G01 X10.1702 Y13.0718
G01 X10.2445 Y13.0411
G01 X10.3369 Y13.0080
G01 X10.4139 Y12.9846
G01 X10.5091 Y12.9608
G01 X10.5880 Y12.9451
G01 X10.6851 Y12.9307
G01 X10.7652 Y12.9228
G01 X10.8632 Y12.9180
G01 X10.9437 Y12.9180
G01 X11.0417 Y12.9228
G01 X11.1218 Y12.9307
G01 X11.2188 Y12.9451
G01 X11.2978 Y12.9608
G01 X11.3930 Y12.9846
G01 X11.4700 Y13.0080
G01 X11.5624 Y13.0411
G01 X11.6367 Y13.0718
G01 X11.7254 Y13.1138
G01 X11.7964 Y13.1517
G01 X11.8806 Y13.2022
G01 X11.9475 Y13.2469
G01 X12.0263 Y13.3054
G01 X12.0401 Y13.3167
G01 X17.6811 Y13.3167
G01 X24.0814 Y6.9165
G01 X24.0831 Y6.8987
G01 X24.0975 Y6.8016
G01 X24.1132 Y6.7227
G01 X24.1371 Y6.6275
G01 X24.1604 Y6.5505
G01 X24.1935 Y6.4581
G01 X24.2243 Y6.3837
G01 X24.2662 Y6.2950
G01 X24.3042 Y6.2240
G01 X24.3546 Y6.1399
G01 X24.3993 Y6.0730
G01 X24.4578 Y5.9941
G01 X24.5088 Y5.9319
G01 X24.5747 Y5.8592
G01 X24.6316 Y5.8023
G01 X24.7044 Y5.7364
G01 X24.7666 Y5.6854
G01 X24.8454 Y5.6269
G01 X24.9123 Y5.5822
G01 X24.9965 Y5.5317
G01 X25.0674 Y5.4938
G01 X25.1562 Y5.4518
G01 X25.2305 Y5.4211
G01 X25.3229 Y5.3880
G01 X25.3999 Y5.3646
G01 X25.4951 Y5.3408
G01 X25.5740 Y5.3251
G01 X25.6711 Y5.3107
G01 X25.7512 Y5.3028
G01 X25.8492 Y5.2980
G01 X25.9297 Y5.2980
G01 X26.0277 Y5.3028
G01 X26.1078 Y5.3107
G01 X26.2048 Y5.3251
G01 X26.2838 Y5.3408
G01 X26.3790 Y5.3646
G01 X26.4560 Y5.3880
G01 X26.5484 Y5.4211
G01 X26.6227 Y5.4518
G01 X26.7114 Y5.4938
G01 X26.7824 Y5.5317
G01 X26.8666 Y5.5822
G01 X26.9335 Y5.6269
G01 X27.0123 Y5.6854
G01 X27.0745 Y5.7364
G01 X27.1472 Y5.8023
G01 X27.2041 Y5.8592
G01 X27.2700 Y5.9319
G01 X27.3211 Y5.9941
G01 X27.3795 Y6.0730
G01 X27.4242 Y6.1399
G01 X27.4747 Y6.2240
G01 X27.5126 Y6.2950
G01 X27.5546 Y6.3837
G01 X27.5854 Y6.4581
G01 X27.6184 Y6.5505
G01 X27.6418 Y6.6275
G01 X27.6656 Y6.7227
G01 X27.6813 Y6.8016
G01 X27.6957 Y6.8987
G01 X27.7036 Y6.9787
G01 X27.7084 Y7.0768
G01 X27.7084 Y7.1572
G01 X27.7036 Y7.2553
G01 X27.6957 Y7.3353
G01 X27.6813 Y7.4324
G01 X27.6656 Y7.5113
G01 X27.6418 Y7.6065
G01 X27.6184 Y7.6835
G01 X27.5854 Y7.7759
G01 X27.5546 Y7.8503
G01 X27.5126 Y7.9390
G01 X27.4747 Y8.0100
G01 X27.4242 Y8.0941
G01 X27.3795 Y8.1610
G01 X27.3211 Y8.2399
G01 X27.2700 Y8.3021
G01 X27.2041 Y8.3748
G01 X27.1472 Y8.4317
G01 X27.0745 Y8.4976
G01 X27.0123 Y8.5486
G01 X26.9335 Y8.6071
G01 X26.8666 Y8.6518
G01 X26.7824 Y8.7023
G01 X26.7114 Y8.7402
G01 X26.6227 Y8.7822
G01 X26.5484 Y8.8129
G01 X26.4560 Y8.8460
G01 X26.3790 Y8.8694
G01 X26.2838 Y8.8932
G01 X26.2048 Y8.9089
G01 X26.1078 Y8.9233
G01 X26.0900 Y8.9251
G01 X19.2737 Y15.7413
G01 X19.2446 Y15.7691
G01 X19.2009 Y15.8086
G01 X19.1387 Y15.8597
G01 X19.0914 Y15.8948
G01 X19.0245 Y15.9395
G01 X18.9740 Y15.9698
G01 X18.9030 Y16.0077
G01 X18.8498 Y16.0329
G01 X18.7754 Y16.0637
G01 X18.7199 Y16.0835
G01 X18.6429 Y16.1069
G01 X18.5858 Y16.1212
G01 X18.5069 Y16.1369
G01 X18.4486 Y16.1455
G01 X18.3685 Y16.1534
G01 X18.3097 Y16.1563
G01 X18.2694 Y16.1573
G01 X12.3593 Y16.1573
G01 X12.3593 Y23.5419
G01 X12.3706 Y23.5557
G01 X12.4291 Y23.6345
G01 X12.4738 Y23.7014
G01 X12.5243 Y23.7856
G01 X12.5622 Y23.8566
G01 X12.6042 Y23.9453
G01 X12.6349 Y24.0196
G01 X12.6680 Y24.1120
G01 X12.6914 Y24.1890
G01 X12.7152 Y24.2842
G01 X12.7309 Y24.3631
G01 X12.7453 Y24.4602
G01 X12.7471 Y24.4780
G01 X16.6987 Y28.4297
G01 X18.9463 Y28.4297
G01 X18.9601 Y28.4184
G01 X19.0390 Y28.3599
G01 X19.1059 Y28.3152
G01 X19.1900 Y28.2647
G01 X19.2610 Y28.2268
G01 X19.3497 Y28.1848
G01 X19.4241 Y28.1541
G01 X19.5165 Y28.1210
G01 X19.5935 Y28.0976
G01 X19.6887 Y28.0738
G01 X19.7676 Y28.0581
G01 X19.8647 Y28.0437
G01 X19.9447 Y28.0358
G01 X20.0428 Y28.0310
G01 X20.1232 Y28.0310
G01 X20.2213 Y28.0358
G01 X20.3013 Y28.0437
G01 X20.3984 Y28.0581
G01 X20.4773 Y28.0738
G01 X20.5725 Y28.0976
G01 X20.6495 Y28.1210
G01 X20.7419 Y28.1541
G01 X20.8163 Y28.1848
G01 X20.9050 Y28.2268
G01 X20.9760 Y28.2647
G01 X21.0601 Y28.3152
G01 X21.1270 Y28.3599
G01 X21.2059 Y28.4184
G01 X21.2681 Y28.4694
G01 X21.3408 Y28.5353
G01 X21.3977 Y28.5922
G01 X21.4636 Y28.6649
G01 X21.5146 Y28.7271
G01 X21.5731 Y28.8060
G01 X21.6178 Y28.8729
G01 X21.6683 Y28.9570
G01 X21.7062 Y29.0280
G01 X21.7482 Y29.1167
G01 X21.7789 Y29.1911
G01 X21.8120 Y29.2835
G01 X21.8354 Y29.3605
G01 X21.8592 Y29.4557
G01 X21.8749 Y29.5346
G01 X21.8893 Y29.6317
G01 X21.8972 Y29.7117
G01 X21.9020 Y29.8098
G01 X21.9020 Y29.8902
G01 X21.8972 Y29.9883
G01 X21.8893 Y30.0683
G01 X21.8749 Y30.1654
G01 X21.8592 Y30.2443
G01 X21.8354 Y30.3395
G01 X21.8120 Y30.4165
G01 X21.7789 Y30.5089
G01 X21.7482 Y30.5833
G01 X21.7062 Y30.6720
G01 X21.6683 Y30.7430
G01 X21.6178 Y30.8271
G01 X21.5731 Y30.8940
G01 X21.5146 Y30.9729
G01 X21.4636 Y31.0351
G01 X21.3977 Y31.1078
G01 X21.3408 Y31.1647
G01 X21.2681 Y31.2306
G01 X21.2059 Y31.2816
G01 X21.1270 Y31.3401
G01 X21.0601 Y31.3848
G01 X20.9760 Y31.4353
G01 X20.9050 Y31.4732
G01 X20.8163 Y31.5152
G01 X20.7419 Y31.5459
G01 X20.6495 Y31.5790
G01 X20.5725 Y31.6024
G01 X20.4773 Y31.6262
G01 X20.3984 Y31.6419
G01 X20.3013 Y31.6563
G01 X20.2213 Y31.6642
G01 X20.1232 Y31.6690
G01 X20.0428 Y31.6690
G01 X19.9447 Y31.6642
G01 X19.8647 Y31.6563
G01 X19.7676 Y31.6419
G01 X19.6887 Y31.6262
G01 X19.5935 Y31.6024
G01 X19.5165 Y31.5790
G01 X19.4241 Y31.5459
G01 X19.3497 Y31.5152
G01 X19.2610 Y31.4732
G01 X19.1900 Y31.4353
G01 X19.1059 Y31.3848
G01 X19.0390 Y31.3401
G01 X18.9601 Y31.2816
G01 X18.9463 Y31.2703
G01 X16.1104 Y31.2703
G01 X16.0702 Y31.2693
G01 X16.0113 Y31.2664
G01 X15.9313 Y31.2585
G01 X15.8730 Y31.2499
G01 X15.7941 Y31.2342
G01 X15.7369 Y31.2199
G01 X15.6599 Y31.1965
G01 X15.6044 Y31.1767
G01 X15.5301 Y31.1459
G01 X15.4768 Y31.1207
G01 X15.4059 Y31.0828
G01 X15.3553 Y31.0525
G01 X15.2884 Y31.0078
G01 X15.2411 Y30.9727
G01 X15.1789 Y30.9216
G01 X15.1353 Y30.8821
G01 X15.1061 Y30.8543
G01 X10.7384 Y26.4866
G01 X10.7207 Y26.4849
G01 X10.6236 Y26.4705
G01 X10.5447 Y26.4548
G01 X10.4495 Y26.4309
G01 X10.3725 Y26.4076
G01 X10.2801 Y26.3745
G01 X10.2057 Y26.3437
G01 X10.1170 Y26.3017
G01 X10.0460 Y26.2638
G01 X9.9619 Y26.2134
G01 X9.8950 Y26.1686
G01 X9.8161 Y26.1102
G01 X9.7539 Y26.0591
G01 X9.6812 Y25.9932
G01 X9.6243 Y25.9363
G01 X9.5584 Y25.8636
G01 X9.5074 Y25.8014
G01 X9.4489 Y25.7226
G01 X9.4042 Y25.6557
G01 X9.3537 Y25.5715
G01 X9.3158 Y25.5005
G01 X9.2738 Y25.4118
G01 X9.2431 Y25.3375
G01 X9.2100 Y25.2451
G01 X9.1866 Y25.1681
G01 X9.1628 Y25.0729
G01 X9.1471 Y24.9940
G01 X9.1327 Y24.8969
G01 X9.1248 Y24.8168
G01 X9.1200 Y24.7188
G01 X9.1200 Y24.6383
G01 X9.1248 Y24.5403
G01 X9.1327 Y24.4602
G01 X9.1471 Y24.3631
G01 X9.1628 Y24.2842
G01 X9.1866 Y24.1890
G01 X9.2100 Y24.1120
G01 X9.2431 Y24.0196
G01 X9.2738 Y23.9453
G01 X9.3158 Y23.8566
G01 X9.3537 Y23.7856
G01 X9.4042 Y23.7014
G01 X9.4489 Y23.6345
G01 X9.5074 Y23.5557
G01 X9.5187 Y23.5418
G01 X9.5187 Y15.9171
G00 Z2.0000
G00 X9.6987 Y15.8481
G01 F60.00
G01 Z-0.0900
G01 F120.00
G01 X9.6562 Y15.8012
G01 X9.6164 Y15.7526
G01 X9.5579 Y15.6738
G01 X9.5230 Y15.6216
G01 X9.4726 Y15.5374
G01 X9.4430 Y15.4820
G01 X9.4010 Y15.3933
G01 X9.3770 Y15.3353
G01 X9.3439 Y15.2429
G01 X9.3257 Y15.1828
G01 X9.3018 Y15.0876
G01 X9.2896 Y15.0260
G01 X9.2752 Y14.9289
G01 X9.2690 Y14.8664
G01 X9.2642 Y14.7684
G01 X9.2642 Y14.7056
G01 X9.2690 Y14.6076
G01 X9.2752 Y14.5451
G01 X9.2896 Y14.4480
G01 X9.3018 Y14.3864
G01 X9.3257 Y14.2912
G01 X9.3439 Y14.2311
G01 X9.3770 Y14.1387
G01 X9.4010 Y14.0807
G01 X9.4430 Y13.9920
G01 X9.4726 Y13.9366
G01 X9.5230 Y13.8524
G01 X9.5579 Y13.8002
G01 X9.6164 Y13.7214
G01 X9.6562 Y13.6728
G01 X9.7221 Y13.6001
G01 X9.7665 Y13.5557
G01 X9.8392 Y13.4898
G01 X9.8878 Y13.4499
G01 X9.9666 Y13.3915
G01 X10.0188 Y13.3566
G01 X10.1030 Y13.3061
G01 X10.1584 Y13.2765
G01 X10.2471 Y13.2346
G01 X10.3051 Y13.2105
G01 X10.3975 Y13.1775
G01 X10.4576 Y13.1592
G01 X10.5528 Y13.1354
G01 X10.6144 Y13.1231
G01 X10.7115 Y13.1087
G01 X10.7740 Y13.1026
G01 X10.8720 Y13.0978
G01 X10.9348 Y13.0978
G01 X11.0329 Y13.1026
G01 X11.0954 Y13.1087
G01 X11.1924 Y13.1231
G01 X11.2540 Y13.1354
G01 X11.3492 Y13.1592
G01 X11.4093 Y13.1775
G01 X11.5017 Y13.2105
G01 X11.5597 Y13.2346
G01 X11.6485 Y13.2765
G01 X11.7039 Y13.3061
G01 X11.7880 Y13.3566
G01 X11.8402 Y13.3915
G01 X11.9191 Y13.4499
G01 X11.9676 Y13.4898
G01 X11.9753 Y13.4967
G01 X17.7557 Y13.4967
G01 X24.2545 Y6.9979
G01 X24.2550 Y6.9876
G01 X24.2612 Y6.9251
G01 X24.2756 Y6.8280
G01 X24.2878 Y6.7664
G01 X24.3117 Y6.6712
G01 X24.3299 Y6.6111
G01 X24.3630 Y6.5187
G01 X24.3870 Y6.4607
G01 X24.4290 Y6.3720
G01 X24.4586 Y6.3166
G01 X24.5090 Y6.2324
G01 X24.5439 Y6.1802
G01 X24.6024 Y6.1014
G01 X24.6422 Y6.0528
G01 X24.7081 Y5.9801
G01 X24.7525 Y5.9357
G01 X24.8252 Y5.8698
G01 X24.8738 Y5.8299
G01 X24.9526 Y5.7715
G01 X25.0048 Y5.7366
G01 X25.0890 Y5.6861
G01 X25.1444 Y5.6565
G01 X25.2331 Y5.6146
G01 X25.2911 Y5.5905
G01 X25.3835 Y5.5575
G01 X25.4436 Y5.5392
G01 X25.5388 Y5.5154
G01 X25.6004 Y5.5031
G01 X25.6975 Y5.4887
G01 X25.7600 Y5.4826
G01 X25.8580 Y5.4778
G01 X25.9208 Y5.4778
G01 X26.0189 Y5.4826
G01 X26.0814 Y5.4887
G01 X26.1784 Y5.5031
G01 X26.2400 Y5.5154
G01 X26.3352 Y5.5392
G01 X26.3953 Y5.5575
G01 X26.4877 Y5.5905
G01 X26.5457 Y5.6146
G01 X26.6345 Y5.6565
G01 X26.6899 Y5.6861
G01 X26.7740 Y5.7366
G01 X26.8262 Y5.7715
G01 X26.9051 Y5.8299
G01 X26.9536 Y5.8698
G01 X27.0263 Y5.9357
G01 X27.0707 Y5.9801
G01 X27.1366 Y6.0528
G01 X27.1765 Y6.1014
G01 X27.2350 Y6.1802
G01 X27.2698 Y6.2324
G01 X27.3203 Y6.3166
G01 X27.3499 Y6.3720
G01 X27.3919 Y6.4607
G01 X27.4159 Y6.5187
G01 X27.4490 Y6.6111
G01 X27.4672 Y6.6712
G01 X27.4910 Y6.7664
G01 X27.5033 Y6.8280
G01 X27.5177 Y6.9251
G01 X27.5238 Y6.9876
G01 X27.5287 Y7.0856
G01 X27.5287 Y7.1484
G01 X27.5238 Y7.2464
G01 X27.5177 Y7.3089
G01 X27.5033 Y7.4060
G01 X27.4910 Y7.4676
G01 X27.4672 Y7.5628
G01 X27.4490 Y7.6229
G01 X27.4159 Y7.7153
G01 X27.3919 Y7.7733
G01 X27.3499 Y7.8620
G01 X27.3203 Y7.9174
G01 X27.2698 Y8.0016
G01 X27.2350 Y8.0538
G01 X27.1765 Y8.1326
G01 X27.1366 Y8.1812
G01 X27.0707 Y8.2539
G01 X27.0263 Y8.2983
G01 X26.9536 Y8.3642
G01 X26.9051 Y8.4041
G01 X26.8262 Y8.4625
G01 X26.7740 Y8.4974
G01 X26.6899 Y8.5479
G01 X26.6345 Y8.5775
G01 X26.5457 Y8.6194
G01 X26.4877 Y8.6435
G01 X26.3953 Y8.6765
G01 X26.3352 Y8.6948
G01 X26.2400 Y8.7186
G01 X26.1784 Y8.7309
G01 X26.0814 Y8.7453
G01 X26.0189 Y8.7514
G01 X26.0086 Y8.7519
G01 X19.1465 Y15.6140
G01 X19.1237 Y15.6357
G01 X19.0801 Y15.6752
G01 X19.0315 Y15.7151
G01 X18.9842 Y15.7502
G01 X18.9320 Y15.7851
G01 X18.8814 Y15.8154
G01 X18.8260 Y15.8450
G01 X18.7728 Y15.8702
G01 X18.7148 Y15.8942
G01 X18.6593 Y15.9140
G01 X18.5992 Y15.9323
G01 X18.5421 Y15.9466
G01 X18.4805 Y15.9588
G01 X18.4222 Y15.9675
G01 X18.3597 Y15.9736
G01 X18.3008 Y15.9765
G01 X18.2694 Y15.9773
G01 X12.1793 Y15.9773
G01 X12.1793 Y23.6067
G01 X12.1862 Y23.6144
G01 X12.2261 Y23.6629
G01 X12.2845 Y23.7417
G01 X12.3194 Y23.7940
G01 X12.3699 Y23.8781
G01 X12.3995 Y23.9335
G01 X12.4414 Y24.0222
G01 X12.4655 Y24.0803
G01 X12.4985 Y24.1727
G01 X12.5168 Y24.2328
G01 X12.5406 Y24.3280
G01 X12.5529 Y24.3896
G01 X12.5673 Y24.4866
G01 X12.5734 Y24.5491
G01 X12.5739 Y24.5595
G01 X16.6242 Y28.6097
G01 X19.0112 Y28.6097
G01 X19.0188 Y28.6028
G01 X19.0674 Y28.5629
G01 X19.1462 Y28.5045
G01 X19.1984 Y28.4696
G01 X19.2826 Y28.4191
G01 X19.3380 Y28.3895
G01 X19.4267 Y28.3476
G01 X19.4847 Y28.3235
G01 X19.5771 Y28.2905
G01 X19.6372 Y28.2722
G01 X19.7324 Y28.2484
G01 X19.7940 Y28.2361
G01 X19.8911 Y28.2217
G01 X19.9536 Y28.2156
G01 X20.0516 Y28.2108
G01 X20.1144 Y28.2108
G01 X20.2124 Y28.2156
G01 X20.2749 Y28.2217
G01 X20.3720 Y28.2361
G01 X20.4336 Y28.2484
G01 X20.5288 Y28.2722
G01 X20.5889 Y28.2905
G01 X20.6813 Y28.3235
G01 X20.7393 Y28.3476
G01 X20.8280 Y28.3895
G01 X20.8834 Y28.4191
G01 X20.9676 Y28.4696
G01 X21.0198 Y28.5045
G01 X21.0986 Y28.5629
G01 X21.1472 Y28.6028
G01 X21.2199 Y28.6687
G01 X21.2643 Y28.7131
G01 X21.3302 Y28.7858
G01 X21.3701 Y28.8344
G01 X21.4285 Y28.9132
G01 X21.4634 Y28.9654
G01 X21.5139 Y29.0496
G01 X21.5435 Y29.1050
G01 X21.5854 Y29.1937
G01 X21.6095 Y29.2517
G01 X21.6425 Y29.3441
G01 X21.6608 Y29.4042
G01 X21.6846 Y29.4994
G01 X21.6969 Y29.5610
G01 X21.7113 Y29.6581
G01 X21.7174 Y29.7206
G01 X21.7222 Y29.8186
G01 X21.7222 Y29.8814
G01 X21.7174 Y29.9794
G01 X21.7113 Y30.0419
G01 X21.6969 Y30.1390
G01 X21.6846 Y30.2006
G01 X21.6608 Y30.2958
G01 X21.6425 Y30.3559
G01 X21.6095 Y30.4483
G01 X21.5854 Y30.5063
G01 X21.5435 Y30.5950
G01 X21.5139 Y30.6504
G01 X21.4634 Y30.7346
G01 X21.4285 Y30.7868
G01 X21.3701 Y30.8656
G01 X21.3302 Y30.9142
G01 X21.2643 Y30.9869
G01 X21.2199 Y31.0313
G01 X21.1472 Y31.0972
G01 X21.0986 Y31.1371
G01 X21.0198 Y31.1955
G01 X20.9676 Y31.2304
G01 X20.8834 Y31.2809
G01 X20.8280 Y31.3105
G01 X20.7393 Y31.3524
G01 X20.6813 Y31.3765
G01 X20.5889 Y31.4095
G01 X20.5288 Y31.4278
G01 X20.4336 Y31.4516
G01 X20.3720 Y31.4639
G01 X20.2749 Y31.4783
G01 X20.2124 Y31.4844
G01 X20.1144 Y31.4892
G01 X20.0516 Y31.4892
G01 X19.9536 Y31.4844
G01 X19.8911 Y31.4783
G01 X19.7940 Y31.4639
G01 X19.7324 Y31.4516
G01 X19.6372 Y31.4278
G01 X19.5771 Y31.4095
G01 X19.4847 Y31.3765
G01 X19.4267 Y31.3524
G01 X19.3380 Y31.3105
G01 X19.2826 Y31.2809
G01 X19.1984 Y31.2304
G01 X19.1462 Y31.1955
G01 X19.0674 Y31.1371
G01 X19.0188 Y31.0972
G01 X19.0112 Y31.0903
G01 X16.1104 Y31.0903
G01 X16.0790 Y31.0895
G01 X16.0202 Y31.0866
G01 X15.9577 Y31.0805
G01 X15.8994 Y31.0718
G01 X15.8378 Y31.0596
G01 X15.7806 Y31.0453
G01 X15.7205 Y31.0270
G01 X15.6651 Y31.0072
G01 X15.6070 Y30.9832
G01 X15.5538 Y30.9580
G01 X15.4984 Y30.9284
G01 X15.4479 Y30.8981
G01 X15.3957 Y30.8632
G01 X15.3483 Y30.8281
G01 X15.2998 Y30.7882
G01 X15.2561 Y30.7487
G01 X15.2334 Y30.7270
G01 X10.8198 Y26.3135
G01 X10.8096 Y26.3130
G01 X10.7471 Y26.3068
G01 X10.6500 Y26.2924
G01 X10.5884 Y26.2802
G01 X10.4932 Y26.2563
G01 X10.4331 Y26.2381
G01 X10.3407 Y26.2050
G01 X10.2827 Y26.1810
G01 X10.1940 Y26.1390
G01 X10.1386 Y26.1094
G01 X10.0544 Y26.0590
G01 X10.0022 Y26.0241
G01 X9.9234 Y25.9656
G01 X9.8748 Y25.9258
G01 X9.8021 Y25.8599
G01 X9.7577 Y25.8155
G01 X9.6918 Y25.7427
G01 X9.6519 Y25.6942
G01 X9.5935 Y25.6154
G01 X9.5586 Y25.5631
G01 X9.5081 Y25.4790
G01 X9.4785 Y25.4236
G01 X9.4366 Y25.3349
G01 X9.4125 Y25.2768
G01 X9.3795 Y25.1844
G01 X9.3612 Y25.1243
G01 X9.3374 Y25.0291
G01 X9.3251 Y24.9675
G01 X9.3107 Y24.8705
G01 X9.3046 Y24.8080
G01 X9.2998 Y24.7100
G01 X9.2998 Y24.6471
G01 X9.3046 Y24.5491
G01 X9.3107 Y24.4866
G01 X9.3251 Y24.3896
G01 X9.3374 Y24.3280
G01 X9.3612 Y24.2328
G01 X9.3795 Y24.1727
G01 X9.4125 Y24.0803
G01 X9.4366 Y24.0222
G01 X9.4785 Y23.9335
G01 X9.5081 Y23.8781
G01 X9.5586 Y23.7940
G01 X9.5935 Y23.7417
G01 X9.6519 Y23.6629
G01 X9.6918 Y23.6144
G01 X9.6987 Y23.6067
G01 X9.6987 Y15.8481
G00 Z2.0000
G00 X9.8787 Y15.7763
G01 F60.00
G01 Z-0.0900
G01 F120.00
G01 X9.8555 Y15.7530
G01 X9.7896 Y15.6803
G01 X9.7609 Y15.6454
G01 X9.7025 Y15.5666
G01 X9.6774 Y15.5291
G01 X9.6270 Y15.4449
G01 X9.6057 Y15.4051
G01 X9.5637 Y15.3164
G01 X9.5464 Y15.2747
G01 X9.5134 Y15.1823
G01 X9.5003 Y15.1391
G01 X9.4764 Y15.0439
G01 X9.4676 Y14.9996
G01 X9.4532 Y14.9025
G01 X9.4488 Y14.8576
G01 X9.4440 Y14.7596
G01 X9.4440 Y14.7144
G01 X9.4488 Y14.6164
G01 X9.4532 Y14.5715
G01 X9.4676 Y14.4744
G01 X9.4764 Y14.4301
G01 X9.5003 Y14.3349
G01 X9.5134 Y14.2917
G01 X9.5464 Y14.1993
G01 X9.5637 Y14.1576
G01 X9.6057 Y14.0689
G01 X9.6270 Y14.0291
G01 X9.6774 Y13.9449
G01 X9.7025 Y13.9074
G01 X9.7609 Y13.8286
G01 X9.7896 Y13.7937
G01 X9.8555 Y13.7210
G01 X9.8874 Y13.6891
G01 X9.9601 Y13.6232
G01 X9.9950 Y13.5945
G01 X10.0738 Y13.5361
G01 X10.1114 Y13.5110
G01 X10.1955 Y13.4605
G01 X10.2354 Y13.4392
G01 X10.3241 Y13.3973
G01 X10.3658 Y13.3800
G01 X10.4582 Y13.3469
G01 X10.5014 Y13.3338
G01 X10.5966 Y13.3100
G01 X10.6408 Y13.3012
G01 X10.7379 Y13.2868
G01 X10.7828 Y13.2824
G01 X10.8809 Y13.2776
G01 X10.9260 Y13.2776
G01 X11.0240 Y13.2824
G01 X11.0689 Y13.2868
G01 X11.1660 Y13.3012
G01 X11.2103 Y13.3100
G01 X11.3055 Y13.3338
G01 X11.3487 Y13.3469
G01 X11.4411 Y13.3800
G01 X11.4828 Y13.3973
G01 X11.5715 Y13.4392
G01 X11.6113 Y13.4605
G01 X11.6955 Y13.5110
G01 X11.7330 Y13.5361
G01 X11.8118 Y13.5945
G01 X11.8467 Y13.6232
G01 X11.9058 Y13.6767
G01 X17.8302 Y13.6767
G01 X24.4309 Y7.0761
G01 X24.4348 Y6.9964
G01 X24.4392 Y6.9515
G01 X24.4536 Y6.8544
G01 X24.4624 Y6.8101
G01 X24.4863 Y6.7149
G01 X24.4994 Y6.6717
G01 X24.5324 Y6.5793
G01 X24.5497 Y6.5376
G01 X24.5917 Y6.4489
G01 X24.6130 Y6.4091
G01 X24.6634 Y6.3249
G01 X24.6885 Y6.2874
G01 X24.7469 Y6.2086
G01 X24.7756 Y6.1737
G01 X24.8415 Y6.1010
G01 X24.8734 Y6.0691
G01 X24.9461 Y6.0032
G01 X24.9810 Y5.9745
G01 X25.0598 Y5.9161
G01 X25.0974 Y5.8910
G01 X25.1815 Y5.8405
G01 X25.2214 Y5.8192
G01 X25.3101 Y5.7773
G01 X25.3518 Y5.7600
G01 X25.4442 Y5.7269
G01 X25.4874 Y5.7138
G01 X25.5826 Y5.6900
G01 X25.6268 Y5.6812
G01 X25.7239 Y5.6668
G01 X25.7688 Y5.6624
G01 X25.8669 Y5.6576
G01 X25.9120 Y5.6576
G01 X26.0100 Y5.6624
G01 X26.0549 Y5.6668
G01 X26.1520 Y5.6812
G01 X26.1963 Y5.6900
G01 X26.2915 Y5.7138
G01 X26.3347 Y5.7269
G01 X26.4271 Y5.7600
G01 X26.4688 Y5.7773
G01 X26.5575 Y5.8192
G01 X26.5973 Y5.8405
G01 X26.6815 Y5.8910
G01 X26.7190 Y5.9161
G01 X26.7978 Y5.9745
G01 X26.8327 Y6.0032
G01 X26.9055 Y6.0691
G01 X26.9374 Y6.1010
G01 X27.0033 Y6.1737
G01 X27.0319 Y6.2086
G01 X27.0904 Y6.2874
G01 X27.1155 Y6.3249
G01 X27.1659 Y6.4091
G01 X27.1872 Y6.4489
G01 X27.2291 Y6.5376
G01 X27.2464 Y6.5793
G01 X27.2795 Y6.6717
G01 X27.2926 Y6.7149
G01 X27.3164 Y6.8101
G01 X27.3252 Y6.8544
G01 X27.3396 Y6.9515
G01 X27.3441 Y6.9964
G01 X27.3489 Y7.0944
G01 X27.3489 Y7.1396
G01 X27.3441 Y7.2376
G01 X27.3396 Y7.2825
G01 X27.3252 Y7.3796
G01 X27.3164 Y7.4239
G01 X27.2926 Y7.5191
G01 X27.2795 Y7.5623
G01 X27.2464 Y7.6547
G01 X27.2291 Y7.6964
G01 X27.1872 Y7.7851
G01 X27.1659 Y7.8249
G01 X27.1155 Y7.9091
G01 X27.0904 Y7.9466
G01 X27.0319 Y8.0254
G01 X27.0033 Y8.0603
G01 X26.9374 Y8.1330
G01 X26.9055 Y8.1649
G01 X26.8327 Y8.2308
G01 X26.7978 Y8.2595
G01 X26.7190 Y8.3179
G01 X26.6815 Y8.3430
G01 X26.5973 Y8.3935
G01 X26.5575 Y8.4148
G01 X26.4688 Y8.4567
G01 X26.4271 Y8.4740
G01 X26.3347 Y8.5071
G01 X26.2915 Y8.5202
G01 X26.1963 Y8.5440
G01 X26.1520 Y8.5528
G01 X26.0549 Y8.5672
G01 X26.0100 Y8.5716
G01 X25.9304 Y8.5755
G01 X19.0192 Y15.4867
G01 X19.0028 Y15.5023
G01 X18.9592 Y15.5419
G01 X18.9243 Y15.5705
G01 X18.8770 Y15.6056
G01 X18.8394 Y15.6307
G01 X18.7889 Y15.6610
G01 X18.7491 Y15.6823
G01 X18.6958 Y15.7074
G01 X18.6541 Y15.7247
G01 X18.5987 Y15.7446
G01 X18.5555 Y15.7577
G01 X18.4983 Y15.7720
G01 X18.4540 Y15.7808
G01 X18.3958 Y15.7894
G01 X18.3508 Y15.7939
G01 X18.2920 Y15.7967
G01 X18.2694 Y15.7973
G01 X11.9993 Y15.7973
G01 X11.9993 Y23.6762
G01 X12.0528 Y23.7352
G01 X12.0815 Y23.7701
G01 X12.1399 Y23.8490
G01 X12.1650 Y23.8865
G01 X12.2155 Y23.9707
G01 X12.2368 Y24.0105
G01 X12.2787 Y24.0992
G01 X12.2960 Y24.1409
G01 X12.3291 Y24.2333
G01 X12.3422 Y24.2765
G01 X12.3660 Y24.3717
G01 X12.3748 Y24.4160
G01 X12.3892 Y24.5130
G01 X12.3936 Y24.5580
G01 X12.3975 Y24.6376
G01 X16.5496 Y28.7897
G01 X19.0806 Y28.7897
G01 X19.1397 Y28.7362
G01 X19.1746 Y28.7075
G01 X19.2534 Y28.6491
G01 X19.2909 Y28.6240
G01 X19.3751 Y28.5735
G01 X19.4149 Y28.5522
G01 X19.5036 Y28.5103
G01 X19.5453 Y28.4930
G01 X19.6377 Y28.4599
G01 X19.6809 Y28.4468
G01 X19.7761 Y28.4230
G01 X19.8204 Y28.4142
G01 X19.9175 Y28.3998
G01 X19.9624 Y28.3954
G01 X20.0604 Y28.3906
G01 X20.1056 Y28.3906
G01 X20.2036 Y28.3954
G01 X20.2485 Y28.3998
G01 X20.3456 Y28.4142
G01 X20.3899 Y28.4230
G01 X20.4851 Y28.4468
G01 X20.5283 Y28.4599
G01 X20.6207 Y28.4930
G01 X20.6624 Y28.5103
G01 X20.7511 Y28.5522
G01 X20.7909 Y28.5735
G01 X20.8751 Y28.6240
G01 X20.9126 Y28.6491
G01 X20.9914 Y28.7075
G01 X21.0263 Y28.7362
G01 X21.0990 Y28.8021
G01 X21.1309 Y28.8340
G01 X21.1968 Y28.9067
G01 X21.2255 Y28.9416
G01 X21.2839 Y29.0204
G01 X21.3090 Y29.0579
G01 X21.3595 Y29.1421
G01 X21.3808 Y29.1819
G01 X21.4227 Y29.2706
G01 X21.4400 Y29.3123
G01 X21.4731 Y29.4047
G01 X21.4862 Y29.4479
G01 X21.5100 Y29.5431
G01 X21.5188 Y29.5874
G01 X21.5332 Y29.6845
G01 X21.5376 Y29.7294
G01 X21.5424 Y29.8274
G01 X21.5424 Y29.8726
G01 X21.5376 Y29.9706
G01 X21.5332 Y30.0155
G01 X21.5188 Y30.1126
G01 X21.5100 Y30.1569
G01 X21.4862 Y30.2521
G01 X21.4731 Y30.2953
G01 X21.4400 Y30.3877
G01 X21.4227 Y30.4294
G01 X21.3808 Y30.5181
G01 X21.3595 Y30.5579
G01 X21.3090 Y30.6421
G01 X21.2839 Y30.6796
G01 X21.2255 Y30.7584
G01 X21.1968 Y30.7933
G01 X21.1309 Y30.8660
G01 X21.0990 Y30.8979
G01 X21.0263 Y30.9638
G01 X20.9914 Y30.9925
G01 X20.9126 Y31.0509
G01 X20.8751 Y31.0760
G01 X20.7909 Y31.1265
G01 X20.7511 Y31.1478
G01 X20.6624 Y31.1897
G01 X20.6207 Y31.2070
G01 X20.5283 Y31.2401
G01 X20.4851 Y31.2532
G01 X20.3899 Y31.2770
G01 X20.3456 Y31.2858
G01 X20.2485 Y31.3002
G01 X20.2036 Y31.3046
G01 X20.1056 Y31.3094
G01 X20.0604 Y31.3094
G01 X19.9624 Y31.3046
G01 X19.9175 Y31.3002
G01 X19.8204 Y31.2858
G01 X19.7761 Y31.2770
G01 X19.6809 Y31.2532
G01 X19.6377 Y31.2401
G01 X19.5453 Y31.2070
G01 X19.5036 Y31.1897
G01 X19.4149 Y31.1478
G01 X19.3751 Y31.1265
G01 X19.2909 Y31.0760
G01 X19.2534 Y31.0509
G01 X19.1746 Y30.9925
G01 X19.1397 Y30.9638
G01 X19.0806 Y30.9103
G01 X16.1104 Y30.9103
G01 X16.0878 Y30.9097
G01 X16.0290 Y30.9069
G01 X15.9841 Y30.9024
G01 X15.9258 Y30.8938
G01 X15.8815 Y30.8850
G01 X15.8244 Y30.8707
G01 X15.7812 Y30.8576
G01 X15.7257 Y30.8377
G01 X15.6840 Y30.8204
G01 X15.6308 Y30.7953
G01 X15.5909 Y30.7740
G01 X15.5404 Y30.7437
G01 X15.5029 Y30.7186
G01 X15.4556 Y30.6835
G01 X15.4207 Y30.6549
G01 X15.3770 Y30.6153
G01 X15.3607 Y30.5997
G01 X10.8980 Y26.1371
G01 X10.8184 Y26.1332
G01 X10.7735 Y26.1288
G01 X10.6764 Y26.1144
G01 X10.6321 Y26.1055
G01 X10.5369 Y26.0817
G01 X10.4937 Y26.0686
G01 X10.4013 Y26.0355
G01 X10.3596 Y26.0183
G01 X10.2709 Y25.9763
G01 X10.2311 Y25.9550
G01 X10.1469 Y25.9046
G01 X10.1094 Y25.8795
G01 X10.0306 Y25.8210
G01 X9.9957 Y25.7924
G01 X9.9230 Y25.7265
G01 X9.8911 Y25.6946
G01 X9.8252 Y25.6219
G01 X9.7965 Y25.5870
G01 X9.7381 Y25.5081
G01 X9.7130 Y25.4706
G01 X9.6625 Y25.3864
G01 X9.6412 Y25.3466
G01 X9.5993 Y25.2579
G01 X9.5820 Y25.2162
G01 X9.5489 Y25.1238
G01 X9.5358 Y25.0806
G01 X9.5120 Y24.9854
G01 X9.5032 Y24.9411
G01 X9.4888 Y24.8441
G01 X9.4844 Y24.7991
G01 X9.4796 Y24.7011
G01 X9.4796 Y24.6560
G01 X9.4844 Y24.5580
G01 X9.4888 Y24.5130
G01 X9.5032 Y24.4160
G01 X9.5120 Y24.3717
G01 X9.5358 Y24.2765
G01 X9.5489 Y24.2333
G01 X9.5820 Y24.1409
G01 X9.5993 Y24.0992
G01 X9.6412 Y24.0105
G01 X9.6625 Y23.9707
G01 X9.7130 Y23.8865
G01 X9.7381 Y23.8490
G01 X9.7965 Y23.7701
G01 X9.8252 Y23.7352
G01 X9.8787 Y23.6761
G01 X9.8787 Y15.7763
G00 Z2.0000
G00 X10.0587 Y15.6973
G01 F60.00
G01 Z-0.0900
G01 F120.00
G01 X10.0083 Y15.6516
G01 X9.9889 Y15.6321
G01 X9.9230 Y15.5594
G01 X9.9055 Y15.5382
G01 X9.8471 Y15.4594
G01 X9.8318 Y15.4365
G01 X9.7813 Y15.3523
G01 X9.7684 Y15.3281
G01 X9.7264 Y15.2394
G01 X9.7159 Y15.2140
G01 X9.6829 Y15.1216
G01 X9.6749 Y15.0953
G01 X9.6510 Y15.0001
G01 X9.6457 Y14.9732
G01 X9.6313 Y14.8761
G01 X9.6286 Y14.8488
G01 X9.6238 Y14.7507
G01 X9.6238 Y14.7233
G01 X9.6286 Y14.6252
G01 X9.6313 Y14.5979
G01 X9.6457 Y14.5008
G01 X9.6510 Y14.4739
G01 X9.6749 Y14.3787
G01 X9.6829 Y14.3524
G01 X9.7159 Y14.2600
G01 X9.7264 Y14.2346
G01 X9.7684 Y14.1459
G01 X9.7813 Y14.1217
G01 X9.8318 Y14.0375
G01 X9.8471 Y14.0146
G01 X9.9055 Y13.9358
G01 X9.9230 Y13.9146
G01 X9.9889 Y13.8419
G01 X10.0083 Y13.8224
G01 X10.0810 Y13.7565
G01 X10.1022 Y13.7391
G01 X10.1811 Y13.6806
G01 X10.2039 Y13.6654
G01 X10.2881 Y13.6149
G01 X10.3123 Y13.6020
G01 X10.4010 Y13.5600
G01 X10.4264 Y13.5495
G01 X10.5188 Y13.5164
G01 X10.5451 Y13.5085
G01 X10.6403 Y13.4846
G01 X10.6673 Y13.4792
G01 X10.7643 Y13.4648
G01 X10.7917 Y13.4622
G01 X10.8897 Y13.4573
G01 X10.9172 Y13.4573
G01 X11.0152 Y13.4622
G01 X11.0425 Y13.4648
G01 X11.1396 Y13.4792
G01 X11.1666 Y13.4846
G01 X11.2617 Y13.5085
G01 X11.2880 Y13.5164
G01 X11.3804 Y13.5495
G01 X11.4058 Y13.5600
G01 X11.4945 Y13.6020
G01 X11.5188 Y13.6149
G01 X11.6029 Y13.6654
G01 X11.6258 Y13.6806
G01 X11.7046 Y13.7391
G01 X11.7259 Y13.7565
G01 X11.7986 Y13.8224
G01 X11.8180 Y13.8419
G01 X11.8315 Y13.8567
G01 X17.9048 Y13.8567
G01 X24.6108 Y7.1507
G01 X24.6098 Y7.1307
G01 X24.6098 Y7.1033
G01 X24.6146 Y7.0052
G01 X24.6173 Y6.9779
G01 X24.6317 Y6.8808
G01 X24.6370 Y6.8539
G01 X24.6609 Y6.7587
G01 X24.6689 Y6.7324
G01 X24.7019 Y6.6400
G01 X24.7124 Y6.6146
G01 X24.7544 Y6.5259
G01 X24.7673 Y6.5017
G01 X24.8178 Y6.4175
G01 X24.8331 Y6.3946
G01 X24.8915 Y6.3158
G01 X24.9090 Y6.2946
G01 X24.9749 Y6.2219
G01 X24.9943 Y6.2024
G01 X25.0670 Y6.1365
G01 X25.0882 Y6.1191
G01 X25.1671 Y6.0606
G01 X25.1899 Y6.0454
G01 X25.2741 Y5.9949
G01 X25.2983 Y5.9820
G01 X25.3870 Y5.9400
G01 X25.4124 Y5.9295
G01 X25.5048 Y5.8964
G01 X25.5311 Y5.8885
G01 X25.6263 Y5.8646
G01 X25.6533 Y5.8592
G01 X25.7503 Y5.8448
G01 X25.7777 Y5.8422
G01 X25.8757 Y5.8373
G01 X25.9032 Y5.8373
G01 X26.0012 Y5.8422
G01 X26.0285 Y5.8448
G01 X26.1256 Y5.8592
G01 X26.1526 Y5.8646
G01 X26.2477 Y5.8885
G01 X26.2740 Y5.8964
G01 X26.3664 Y5.9295
G01 X26.3918 Y5.9400
G01 X26.4805 Y5.9820
G01 X26.5048 Y5.9949
G01 X26.5889 Y6.0454
G01 X26.6118 Y6.0606
G01 X26.6906 Y6.1191
G01 X26.7119 Y6.1365
G01 X26.7846 Y6.2024
G01 X26.8040 Y6.2219
G01 X26.8699 Y6.2946
G01 X26.8873 Y6.3158
G01 X26.9458 Y6.3946
G01 X26.9611 Y6.4175
G01 X27.0115 Y6.5017
G01 X27.0245 Y6.5259
G01 X27.0664 Y6.6146
G01 X27.0769 Y6.6400
G01 X27.1100 Y6.7324
G01 X27.1180 Y6.7587
G01 X27.1418 Y6.8539
G01 X27.1472 Y6.8808
G01 X27.1616 Y6.9779
G01 X27.1643 Y7.0052
G01 X27.1691 Y7.1033
G01 X27.1691 Y7.1307
G01 X27.1643 Y7.2288
G01 X27.1616 Y7.2561
G01 X27.1472 Y7.3532
G01 X27.1418 Y7.3801
G01 X27.1180 Y7.4753
G01 X27.1100 Y7.5016
G01 X27.0769 Y7.5940
G01 X27.0664 Y7.6194
G01 X27.0245 Y7.7081
G01 X27.0115 Y7.7323
G01 X26.9611 Y7.8165
G01 X26.9458 Y7.8394
G01 X26.8873 Y7.9182
G01 X26.8699 Y7.9394
G01 X26.8040 Y8.0121
G01 X26.7846 Y8.0316
G01 X26.7119 Y8.0975
G01 X26.6906 Y8.1149
G01 X26.6118 Y8.1734
G01 X26.5889 Y8.1886
G01 X26.5048 Y8.2391
G01 X26.4805 Y8.2520
G01 X26.3918 Y8.2940
G01 X26.3664 Y8.3045
G01 X26.2740 Y8.3376
G01 X26.2477 Y8.3455
G01 X26.1526 Y8.3694
G01 X26.1256 Y8.3748
G01 X26.0285 Y8.3892
G01 X26.0012 Y8.3918
G01 X25.9032 Y8.3967
G01 X25.8757 Y8.3967
G01 X25.8557 Y8.3957
G01 X18.8919 Y15.3595
G01 X18.8819 Y15.3689
G01 X18.8383 Y15.4085
G01 X18.8171 Y15.4259
G01 X18.7697 Y15.4610
G01 X18.7469 Y15.4763
G01 X18.6964 Y15.5066
G01 X18.6721 Y15.5195
G01 X18.6189 Y15.5447
G01 X18.5935 Y15.5552
G01 X18.5380 Y15.5751
G01 X18.5117 Y15.5831
G01 X18.4546 Y15.5974
G01 X18.4276 Y15.6027
G01 X18.3694 Y15.6114
G01 X18.3420 Y15.6141
G01 X18.2832 Y15.6170
G01 X18.2694 Y15.6173
G01 X11.8315 Y15.6173
G01 X11.8193 Y15.6307
G01 X11.8193 Y23.7505
G01 X11.8341 Y23.7640
G01 X11.8536 Y23.7834
G01 X11.9195 Y23.8561
G01 X11.9369 Y23.8774
G01 X11.9954 Y23.9562
G01 X12.0106 Y23.9790
G01 X12.0611 Y24.0632
G01 X12.0740 Y24.0874
G01 X12.1160 Y24.1762
G01 X12.1265 Y24.2015
G01 X12.1596 Y24.2939
G01 X12.1675 Y24.3202
G01 X12.1914 Y24.4154
G01 X12.1968 Y24.4424
G01 X12.2112 Y24.5394
G01 X12.2138 Y24.5668
G01 X12.2187 Y24.6648
G01 X12.2187 Y24.6923
G01 X12.2177 Y24.7123
G01 X16.4750 Y28.9697
G01 X19.1550 Y28.9697
G01 X19.1684 Y28.9549
G01 X19.1879 Y28.9354
G01 X19.2606 Y28.8695
G01 X19.2818 Y28.8521
G01 X19.3606 Y28.7936
G01 X19.3835 Y28.7784
G01 X19.4677 Y28.7279
G01 X19.4919 Y28.7150
G01 X19.5806 Y28.6730
G01 X19.6060 Y28.6625
G01 X19.6984 Y28.6294
G01 X19.7247 Y28.6215
G01 X19.8199 Y28.5976
G01 X19.8468 Y28.5922
G01 X19.9439 Y28.5778
G01 X19.9712 Y28.5752
G01 X20.0693 Y28.5703
G01 X20.0967 Y28.5703
G01 X20.1948 Y28.5752
G01 X20.2221 Y28.5778
G01 X20.3192 Y28.5922
G01 X20.3461 Y28.5976
G01 X20.4413 Y28.6215
G01 X20.4676 Y28.6294
G01 X20.5600 Y28.6625
G01 X20.5854 Y28.6730
G01 X20.6741 Y28.7150
G01 X20.6983 Y28.7279
G01 X20.7825 Y28.7784
G01 X20.8054 Y28.7936
G01 X20.8842 Y28.8521
G01 X20.9054 Y28.8695
G01 X20.9781 Y28.9354
G01 X20.9976 Y28.9549
G01 X21.0635 Y29.0276
G01 X21.0809 Y29.0488
G01 X21.1394 Y29.1276
G01 X21.1546 Y29.1505
G01 X21.2051 Y29.2347
G01 X21.2180 Y29.2589
G01 X21.2600 Y29.3476
G01 X21.2705 Y29.3730
G01 X21.3036 Y29.4654
G01 X21.3115 Y29.4917
G01 X21.3354 Y29.5869
G01 X21.3408 Y29.6138
G01 X21.3552 Y29.7109
G01 X21.3578 Y29.7382
G01 X21.3627 Y29.8363
G01 X21.3627 Y29.8637
G01 X21.3578 Y29.9618
G01 X21.3552 Y29.9891
G01 X21.3408 Y30.0862
G01 X21.3354 Y30.1131
G01 X21.3115 Y30.2083
G01 X21.3036 Y30.2346
G01 X21.2705 Y30.3270
G01 X21.2600 Y30.3524
G01 X21.2180 Y30.4411
G01 X21.2051 Y30.4653
G01 X21.1546 Y30.5495
G01 X21.1394 Y30.5724
G01 X21.0809 Y30.6512
G01 X21.0635 Y30.6724
G01 X20.9976 Y30.7451
G01 X20.9781 Y30.7646
G01 X20.9054 Y30.8305
G01 X20.8842 Y30.8479
G01 X20.8054 Y30.9064
G01 X20.7825 Y30.9216
G01 X20.6983 Y30.9721
G01 X20.6741 Y30.9850
G01 X20.5854 Y31.0270
G01 X20.5600 Y31.0375
G01 X20.4676 Y31.0706
G01 X20.4413 Y31.0785
G01 X20.3461 Y31.1024
G01 X20.3192 Y31.1078
G01 X20.2221 Y31.1222
G01 X20.1948 Y31.1248
G01 X20.0967 Y31.1297
G01 X20.0693 Y31.1297
G01 X19.9712 Y31.1248
G01 X19.9439 Y31.1222
G01 X19.8468 Y31.1078
G01 X19.8199 Y31.1024
G01 X19.7247 Y31.0785
G01 X19.6984 Y31.0706
G01 X19.6060 Y31.0375
G01 X19.5806 Y31.0270
G01 X19.4919 Y30.9850
G01 X19.4677 Y30.9721
G01 X19.3835 Y30.9216
G01 X19.3606 Y30.9064
G01 X19.2818 Y30.8479
G01 X19.2606 Y30.8305
G01 X19.1879 Y30.7646
G01 X19.1684 Y30.7451
G01 X19.1550 Y30.7303
G01 X16.1104 Y30.7303
G01 X16.0967 Y30.7300
G01 X16.0378 Y30.7271
G01 X16.0105 Y30.7244
G01 X15.9522 Y30.7157
G01 X15.9253 Y30.7104
G01 X15.8681 Y30.6961
G01 X15.8418 Y30.6881
G01 X15.7864 Y30.6682
G01 X15.7610 Y30.6577
G01 X15.7077 Y30.6325
G01 X15.6835 Y30.6196
G01 X15.6330 Y30.5893
G01 X15.6101 Y30.5740
G01 X15.5628 Y30.5389
G01 X15.5415 Y30.5215
G01 X15.4979 Y30.4819
G01 X15.4879 Y30.4725
G01 X10.9727 Y25.9572
G01 X10.9527 Y25.9582
G01 X10.9253 Y25.9582
G01 X10.8272 Y25.9534
G01 X10.7999 Y25.9507
G01 X10.7028 Y25.9363
G01 X10.6759 Y25.9309
G01 X10.5807 Y25.9071
G01 X10.5544 Y25.8991
G01 X10.4620 Y25.8661
G01 X10.4366 Y25.8555
G01 X10.3479 Y25.8136
G01 X10.3237 Y25.8006
G01 X10.2395 Y25.7502
G01 X10.2166 Y25.7349
G01 X10.1378 Y25.6765
G01 X10.1166 Y25.6590
G01 X10.0439 Y25.5931
G01 X10.0244 Y25.5737
G01 X9.9585 Y25.5010
G01 X9.9411 Y25.4797
G01 X9.8826 Y25.4009
G01 X9.8674 Y25.3781
G01 X9.8169 Y25.2939
G01 X9.8040 Y25.2697
G01 X9.7620 Y25.1809
G01 X9.7515 Y25.1556
G01 X9.7184 Y25.0632
G01 X9.7105 Y25.0369
G01 X9.6866 Y24.9417
G01 X9.6812 Y24.9147
G01 X9.6668 Y24.8177
G01 X9.6642 Y24.7903
G01 X9.6593 Y24.6923
G01 X9.6593 Y24.6648
G01 X9.6642 Y24.5668
G01 X9.6668 Y24.5394
G01 X9.6812 Y24.4424
G01 X9.6866 Y24.4154
G01 X9.7105 Y24.3202
G01 X9.7184 Y24.2939
G01 X9.7515 Y24.2015
G01 X9.7620 Y24.1762
G01 X9.8040 Y24.0874
G01 X9.8169 Y24.0632
G01 X9.8674 Y23.9790
G01 X9.8826 Y23.9562
G01 X9.9411 Y23.8774
G01 X9.9585 Y23.8561
G01 X10.0244 Y23.7834
G01 X10.0439 Y23.7640
G01 X10.0587 Y23.7505
G01 X10.0587 Y15.6973
G00 Z2.0000
G00 X10.2387 Y23.8304
G01 F60.00
G01 Z-0.0900
G01 F120.00
G01 X10.2387 Y15.6120
G01 X10.2095 Y15.5903
G01 X10.2019 Y15.5841
G01 X10.1292 Y15.5182
G01 X10.1222 Y15.5113
G01 X10.0563 Y15.4385
G01 X10.0501 Y15.4310
G01 X9.9916 Y15.3521
G01 X9.9862 Y15.3440
G01 X9.9357 Y15.2598
G01 X9.9311 Y15.2512
G01 X9.8892 Y15.1624
G01 X9.8854 Y15.1534
G01 X9.8523 Y15.0610
G01 X9.8495 Y15.0516
G01 X9.8256 Y14.9564
G01 X9.8237 Y14.9468
G01 X9.8093 Y14.8497
G01 X9.8084 Y14.8399
G01 X9.8036 Y14.7419
G01 X9.8036 Y14.7321
G01 X9.8084 Y14.6341
G01 X9.8093 Y14.6243
G01 X9.8237 Y14.5272
G01 X9.8256 Y14.5176
G01 X9.8495 Y14.4224
G01 X9.8523 Y14.4130
G01 X9.8854 Y14.3206
G01 X9.8892 Y14.3116
G01 X9.9311 Y14.2228
G01 X9.9357 Y14.2142
G01 X9.9862 Y14.1300
G01 X9.9916 Y14.1219
G01 X10.0501 Y14.0430
G01 X10.0563 Y14.0355
G01 X10.1222 Y13.9627
G01 X10.1292 Y13.9558
G01 X10.2019 Y13.8899
G01 X10.2095 Y13.8837
G01 X10.2883 Y13.8252
G01 X10.2964 Y13.8198
G01 X10.3806 Y13.7693
G01 X10.3893 Y13.7647
G01 X10.4780 Y13.7227
G01 X10.4871 Y13.7190
G01 X10.5795 Y13.6859
G01 X10.5888 Y13.6831
G01 X10.6840 Y13.6592
G01 X10.6937 Y13.6573
G01 X10.7907 Y13.6429
G01 X10.8005 Y13.6419
G01 X10.8985 Y13.6371
G01 X10.9083 Y13.6371
G01 X11.0064 Y13.6419
G01 X11.0161 Y13.6429
G01 X11.1132 Y13.6573
G01 X11.1228 Y13.6592
G01 X11.2180 Y13.6831
G01 X11.2274 Y13.6859
G01 X11.3198 Y13.7190
G01 X11.3289 Y13.7227
G01 X11.4176 Y13.7647
G01 X11.4262 Y13.7693
G01 X11.5104 Y13.8198
G01 X11.5186 Y13.8252
G01 X11.5974 Y13.8837
G01 X11.6050 Y13.8899
G01 X11.6777 Y13.9558
G01 X11.6846 Y13.9627
G01 X11.7516 Y14.0367
G01 X17.9794 Y14.0367
G01 X24.7945 Y7.2215
G01 X24.7896 Y7.1219
G01 X24.7896 Y7.1121
G01 X24.7944 Y7.0141
G01 X24.7953 Y7.0043
G01 X24.8097 Y6.9072
G01 X24.8116 Y6.8976
G01 X24.8355 Y6.8024
G01 X24.8383 Y6.7930
G01 X24.8714 Y6.7006
G01 X24.8752 Y6.6916
G01 X24.9171 Y6.6028
G01 X24.9217 Y6.5942
G01 X24.9722 Y6.5100
G01 X24.9776 Y6.5019
G01 X25.0361 Y6.4230
G01 X25.0423 Y6.4155
G01 X25.1082 Y6.3427
G01 X25.1152 Y6.3358
G01 X25.1879 Y6.2699
G01 X25.1955 Y6.2637
G01 X25.2743 Y6.2052
G01 X25.2824 Y6.1998
G01 X25.3666 Y6.1493
G01 X25.3753 Y6.1447
G01 X25.4640 Y6.1027
G01 X25.4731 Y6.0990
G01 X25.5655 Y6.0659
G01 X25.5748 Y6.0631
G01 X25.6700 Y6.0392
G01 X25.6797 Y6.0373
G01 X25.7767 Y6.0229
G01 X25.7865 Y6.0219
G01 X25.8845 Y6.0171
G01 X25.8943 Y6.0171
G01 X25.9924 Y6.0219
G01 X26.0021 Y6.0229
G01 X26.0992 Y6.0373
G01 X26.1088 Y6.0392
G01 X26.2040 Y6.0631
G01 X26.2134 Y6.0659
G01 X26.3058 Y6.0990
G01 X26.3149 Y6.1027
G01 X26.4036 Y6.1447
G01 X26.4122 Y6.1493
G01 X26.4964 Y6.1998
G01 X26.5046 Y6.2052
G01 X26.5834 Y6.2637
G01 X26.5910 Y6.2699
G01 X26.6637 Y6.3358
G01 X26.6706 Y6.3427
G01 X26.7365 Y6.4155
G01 X26.7428 Y6.4230
G01 X26.8012 Y6.5019
G01 X26.8067 Y6.5100
G01 X26.8571 Y6.5942
G01 X26.8618 Y6.6028
G01 X26.9037 Y6.6916
G01 X26.9075 Y6.7006
G01 X26.9405 Y6.7930
G01 X26.9434 Y6.8024
G01 X26.9672 Y6.8976
G01 X26.9691 Y6.9072
G01 X26.9835 Y7.0043
G01 X26.9845 Y7.0141
G01 X26.9893 Y7.1121
G01 X26.9893 Y7.1219
G01 X26.9845 Y7.2199
G01 X26.9835 Y7.2297
G01 X26.9691 Y7.3268
G01 X26.9672 Y7.3364
G01 X26.9434 Y7.4316
G01 X26.9405 Y7.4410
G01 X26.9075 Y7.5334
G01 X26.9037 Y7.5424
G01 X26.8618 Y7.6312
G01 X26.8571 Y7.6398
G01 X26.8067 Y7.7240
G01 X26.8012 Y7.7321
G01 X26.7428 Y7.8110
G01 X26.7365 Y7.8185
G01 X26.6706 Y7.8913
G01 X26.6637 Y7.8982
G01 X26.5910 Y7.9641
G01 X26.5834 Y7.9703
G01 X26.5046 Y8.0288
G01 X26.4964 Y8.0342
G01 X26.4122 Y8.0847
G01 X26.4036 Y8.0893
G01 X26.3149 Y8.1313
G01 X26.3058 Y8.1350
G01 X26.2134 Y8.1681
G01 X26.2040 Y8.1709
G01 X26.1088 Y8.1948
G01 X26.0992 Y8.1967
G01 X26.0021 Y8.2111
G01 X25.9924 Y8.2121
G01 X25.8943 Y8.2169
G01 X25.8845 Y8.2169
G01 X25.7849 Y8.2119
G01 X18.7646 Y15.2322
G01 X18.7174 Y15.2751
G01 X18.7098 Y15.2814
G01 X18.6625 Y15.3165
G01 X18.6543 Y15.3219
G01 X18.6038 Y15.3522
G01 X18.5952 Y15.3568
G01 X18.5419 Y15.3820
G01 X18.5328 Y15.3858
G01 X18.4774 Y15.4056
G01 X18.4680 Y15.4085
G01 X18.4108 Y15.4228
G01 X18.4012 Y15.4247
G01 X18.3429 Y15.4333
G01 X18.3332 Y15.4343
G01 X18.2694 Y15.4373
G01 X11.7516 Y15.4373
G01 X11.6846 Y15.5113
G01 X11.6777 Y15.5182
G01 X11.6393 Y15.5530
G01 X11.6393 Y23.8304
G01 X11.7133 Y23.8973
G01 X11.7202 Y23.9043
G01 X11.7861 Y23.9770
G01 X11.7923 Y23.9846
G01 X11.8508 Y24.0634
G01 X11.8562 Y24.0716
G01 X11.9067 Y24.1557
G01 X11.9113 Y24.1644
G01 X11.9533 Y24.2531
G01 X11.9570 Y24.2622
G01 X11.9901 Y24.3546
G01 X11.9929 Y24.3640
G01 X12.0168 Y24.4592
G01 X12.0187 Y24.4688
G01 X12.0331 Y24.5659
G01 X12.0341 Y24.5756
G01 X12.0389 Y24.6736
G01 X12.0389 Y24.6835
G01 X12.0339 Y24.7831
G01 X16.4005 Y29.1497
G01 X19.2349 Y29.1497
G01 X19.3018 Y29.0757
G01 X19.3087 Y29.0688
G01 X19.3815 Y29.0029
G01 X19.3890 Y28.9967
G01 X19.4679 Y28.9382
G01 X19.4760 Y28.9328
G01 X19.5602 Y28.8823
G01 X19.5688 Y28.8777
G01 X19.6576 Y28.8357
G01 X19.6666 Y28.8320
G01 X19.7590 Y28.7989
G01 X19.7684 Y28.7961
G01 X19.8636 Y28.7722
G01 X19.8732 Y28.7703
G01 X19.9703 Y28.7559
G01 X19.9801 Y28.7549
G01 X20.0781 Y28.7501
G01 X20.0879 Y28.7501
G01 X20.1859 Y28.7549
G01 X20.1957 Y28.7559
G01 X20.2928 Y28.7703
G01 X20.3024 Y28.7722
G01 X20.3976 Y28.7961
G01 X20.4070 Y28.7989
G01 X20.4994 Y28.8320
G01 X20.5084 Y28.8357
G01 X20.5972 Y28.8777
G01 X20.6058 Y28.8823
G01 X20.6900 Y28.9328
G01 X20.6981 Y28.9382
G01 X20.7770 Y28.9967
G01 X20.7845 Y29.0029
G01 X20.8573 Y29.0688
G01 X20.8642 Y29.0757
G01 X20.9301 Y29.1485
G01 X20.9363 Y29.1560
G01 X20.9948 Y29.2349
G01 X21.0002 Y29.2430
G01 X21.0507 Y29.3272
G01 X21.0553 Y29.3358
G01 X21.0973 Y29.4246
G01 X21.1010 Y29.4336
G01 X21.1341 Y29.5260
G01 X21.1369 Y29.5354
G01 X21.1608 Y29.6306
G01 X21.1627 Y29.6402
G01 X21.1771 Y29.7373
G01 X21.1781 Y29.7471
G01 X21.1829 Y29.8451
G01 X21.1829 Y29.8549
G01 X21.1781 Y29.9529
G01 X21.1771 Y29.9627
G01 X21.1627 Y30.0598
G01 X21.1608 Y30.0694
G01 X21.1369 Y30.1646
G01 X21.1341 Y30.1740
G01 X21.1010 Y30.2664
G01 X21.0973 Y30.2754
G01 X21.0553 Y30.3642
G01 X21.0507 Y30.3728
G01 X21.0002 Y30.4570
G01 X20.9948 Y30.4651
G01 X20.9363 Y30.5440
G01 X20.9301 Y30.5515
G01 X20.8642 Y30.6243
G01 X20.8573 Y30.6312
G01 X20.7845 Y30.6971
G01 X20.7770 Y30.7033
G01 X20.6981 Y30.7618
G01 X20.6900 Y30.7672
G01 X20.6058 Y30.8177
G01 X20.5972 Y30.8223
G01 X20.5084 Y30.8643
G01 X20.4994 Y30.8680
G01 X20.4070 Y30.9011
G01 X20.3976 Y30.9039
G01 X20.3024 Y30.9278
G01 X20.2928 Y30.9297
G01 X20.1957 Y30.9441
G01 X20.1859 Y30.9451
G01 X20.0879 Y30.9499
G01 X20.0781 Y30.9499
G01 X19.9801 Y30.9451
G01 X19.9703 Y30.9441
G01 X19.8732 Y30.9297
G01 X19.8636 Y30.9278
G01 X19.7684 Y30.9039
G01 X19.7590 Y30.9011
G01 X19.6666 Y30.8680
G01 X19.6576 Y30.8643
G01 X19.5688 Y30.8223
G01 X19.5602 Y30.8177
G01 X19.4760 Y30.7672
G01 X19.4679 Y30.7618
G01 X19.3890 Y30.7033
G01 X19.3815 Y30.6971
G01 X19.3087 Y30.6312
G01 X19.3018 Y30.6243
G01 X19.2349 Y30.5503
G01 X16.1055 Y30.5502
G01 X16.0467 Y30.5473
G01 X16.0369 Y30.5463
G01 X15.9786 Y30.5377
G01 X15.9690 Y30.5358
G01 X15.9119 Y30.5215
G01 X15.9025 Y30.5186
G01 X15.8470 Y30.4988
G01 X15.8379 Y30.4950
G01 X15.7847 Y30.4698
G01 X15.7760 Y30.4652
G01 X15.7255 Y30.4349
G01 X15.7173 Y30.4295
G01 X15.6700 Y30.3944
G01 X15.6624 Y30.3881
G01 X15.6152 Y30.3452
G01 X11.0435 Y25.7735
G01 X10.9439 Y25.7784
G01 X10.9341 Y25.7784
G01 X10.8361 Y25.7736
G01 X10.8263 Y25.7727
G01 X10.7292 Y25.7583
G01 X10.7196 Y25.7563
G01 X10.6244 Y25.7325
G01 X10.6150 Y25.7296
G01 X10.5226 Y25.6966
G01 X10.5136 Y25.6928
G01 X10.4248 Y25.6509
G01 X10.4162 Y25.6462
G01 X10.3320 Y25.5958
G01 X10.3239 Y25.5903
G01 X10.2450 Y25.5319
G01 X10.2375 Y25.5257
G01 X10.1647 Y25.4598
G01 X10.1578 Y25.4528
G01 X10.0919 Y25.3801
G01 X10.0857 Y25.3725
G01 X10.0272 Y25.2937
G01 X10.0218 Y25.2855
G01 X9.9713 Y25.2014
G01 X9.9667 Y25.1927
G01 X9.9247 Y25.1040
G01 X9.9210 Y25.0949
G01 X9.8879 Y25.0025
G01 X9.8851 Y24.9931
G01 X9.8612 Y24.8979
G01 X9.8593 Y24.8883
G01 X9.8449 Y24.7912
G01 X9.8439 Y24.7815
G01 X9.8391 Y24.6835
G01 X9.8391 Y24.6736
G01 X9.8439 Y24.5756
G01 X9.8449 Y24.5659
G01 X9.8593 Y24.4688
G01 X9.8612 Y24.4592
G01 X9.8851 Y24.3640
G01 X9.8879 Y24.3546
G01 X9.9210 Y24.2622
G01 X9.9247 Y24.2531
G01 X9.9667 Y24.1644
G01 X9.9713 Y24.1557
G01 X10.0218 Y24.0716
G01 X10.0272 Y24.0634
G01 X10.0857 Y23.9846
G01 X10.0919 Y23.9770
G01 X10.1578 Y23.9043
G01 X10.1647 Y23.8973
G01 X10.2387 Y23.8304
G00 Z2.0000
G00 X24.9625 Y28.0419
G01 F60.00
G01 Z-0.0900
G01 F120.00
G01 X29.3657 Y23.6387
G01 X29.3948 Y23.6109
G01 X29.4385 Y23.5714
G01 X29.5007 Y23.5203
G01 X29.5480 Y23.4852
G01 X29.6149 Y23.4405
G01 X29.6655 Y23.4102
G01 X29.7364 Y23.3723
G01 X29.7897 Y23.3471
G01 X29.8640 Y23.3163
G01 X29.9195 Y23.2965
G01 X29.9965 Y23.2731
G01 X30.0536 Y23.2588
G01 X30.1326 Y23.2431
G01 X30.1908 Y23.2345
G01 X30.2709 Y23.2266
G01 X30.3298 Y23.2237
G01 X30.3700 Y23.2227
G01 X33.7757 Y23.2227
G01 X33.7757 Y15.7174
G01 X33.7767 Y15.6772
G01 X33.7796 Y15.6184
G01 X33.7875 Y15.5383
G01 X33.7961 Y15.4800
G01 X33.8118 Y15.4011
G01 X33.8261 Y15.3439
G01 X33.8495 Y15.2669
G01 X33.8693 Y15.2115
G01 X33.9001 Y15.1371
G01 X33.9253 Y15.0839
G01 X33.9632 Y15.0129
G01 X33.9935 Y14.9624
G01 X34.0382 Y14.8955
G01 X34.0733 Y14.8481
G01 X34.1244 Y14.7859
G01 X34.1639 Y14.7423
G01 X34.1917 Y14.7131
G01 X36.0549 Y12.8499
G01 X36.0567 Y12.8321
G01 X36.0711 Y12.7350
G01 X36.0868 Y12.6561
G01 X36.1106 Y12.5609
G01 X36.1340 Y12.4839
G01 X36.1671 Y12.3915
G01 X36.1978 Y12.3172
G01 X36.2398 Y12.2284
G01 X36.2777 Y12.1575
G01 X36.3282 Y12.0733
G01 X36.3729 Y12.0064
G01 X36.4314 Y11.9276
G01 X36.4824 Y11.8654
G01 X36.5483 Y11.7927
G01 X36.6052 Y11.7358
G01 X36.6779 Y11.6698
G01 X36.7401 Y11.6188
G01 X36.8190 Y11.5603
G01 X36.8859 Y11.5156
G01 X36.9700 Y11.4652
G01 X37.0410 Y11.4272
G01 X37.1297 Y11.3853
G01 X37.2041 Y11.3545
G01 X37.2965 Y11.3214
G01 X37.3735 Y11.2981
G01 X37.4687 Y11.2742
G01 X37.5476 Y11.2585
G01 X37.6447 Y11.2441
G01 X37.7247 Y11.2362
G01 X37.8228 Y11.2314
G01 X37.9032 Y11.2314
G01 X38.0013 Y11.2362
G01 X38.0813 Y11.2441
G01 X38.1784 Y11.2585
G01 X38.2573 Y11.2742
G01 X38.3525 Y11.2981
G01 X38.4295 Y11.3214
G01 X38.5219 Y11.3545
G01 X38.5963 Y11.3853
G01 X38.6850 Y11.4272
G01 X38.7560 Y11.4652
G01 X38.8401 Y11.5156
G01 X38.9070 Y11.5603
G01 X38.9859 Y11.6188
G01 X39.0481 Y11.6698
G01 X39.1208 Y11.7358
G01 X39.1777 Y11.7927
G01 X39.2436 Y11.8654
G01 X39.2946 Y11.9276
G01 X39.3531 Y12.0064
G01 X39.3978 Y12.0733
G01 X39.4483 Y12.1575
G01 X39.4862 Y12.2284
G01 X39.5282 Y12.3172
G01 X39.5589 Y12.3915
G01 X39.5920 Y12.4839
G01 X39.6154 Y12.5609
G01 X39.6392 Y12.6561
G01 X39.6549 Y12.7350
G01 X39.6693 Y12.8321
G01 X39.6772 Y12.9122
G01 X39.6820 Y13.0102
G01 X39.6820 Y13.0907
G01 X39.6772 Y13.1887
G01 X39.6693 Y13.2688
G01 X39.6549 Y13.3658
G01 X39.6392 Y13.4448
G01 X39.6154 Y13.5400
G01 X39.5920 Y13.6170
G01 X39.5589 Y13.7094
G01 X39.5282 Y13.7837
G01 X39.4862 Y13.8724
G01 X39.4483 Y13.9434
G01 X39.3978 Y14.0276
G01 X39.3531 Y14.0945
G01 X39.2946 Y14.1733
G01 X39.2436 Y14.2355
G01 X39.1777 Y14.3082
G01 X39.1208 Y14.3651
G01 X39.0481 Y14.4310
G01 X38.9859 Y14.4821
G01 X38.9070 Y14.5405
G01 X38.8401 Y14.5852
G01 X38.7560 Y14.6357
G01 X38.6850 Y14.6736
G01 X38.5963 Y14.7156
G01 X38.5219 Y14.7464
G01 X38.4295 Y14.7794
G01 X38.3525 Y14.8028
G01 X38.2573 Y14.8267
G01 X38.1784 Y14.8423
G01 X38.0813 Y14.8567
G01 X38.0635 Y14.8585
G01 X36.6163 Y16.3057
G01 X36.6163 Y23.7307
G01 X39.4289 Y23.7307
G01 X39.4427 Y23.7194
G01 X39.5215 Y23.6609
G01 X39.5884 Y23.6162
G01 X39.6726 Y23.5657
G01 X39.7436 Y23.5278
G01 X39.8323 Y23.4858
G01 X39.9066 Y23.4551
G01 X39.9990 Y23.4220
G01 X40.0760 Y23.3986
G01 X40.1712 Y23.3748
G01 X40.2502 Y23.3591
G01 X40.3472 Y23.3447
G01 X40.4273 Y23.3368
G01 X40.5253 Y23.3320
G01 X40.6058 Y23.3320
G01 X40.7038 Y23.3368
G01 X40.7839 Y23.3447
G01 X40.8810 Y23.3591
G01 X40.9599 Y23.3748
G01 X41.0551 Y23.3986
G01 X41.1321 Y23.4220
G01 X41.2245 Y23.4551
G01 X41.2988 Y23.4858
G01 X41.3876 Y23.5278
G01 X41.4585 Y23.5657
G01 X41.5427 Y23.6162
G01 X41.6096 Y23.6609
G01 X41.6884 Y23.7194
G01 X41.7506 Y23.7704
G01 X41.8233 Y23.8363
G01 X41.8802 Y23.8932
G01 X41.9462 Y23.9659
G01 X41.9972 Y24.0281
G01 X42.0557 Y24.1070
G01 X42.1004 Y24.1739
G01 X42.1508 Y24.2580
G01 X42.1888 Y24.3290
G01 X42.2307 Y24.4177
G01 X42.2615 Y24.4921
G01 X42.2946 Y24.5845
G01 X42.3179 Y24.6615
G01 X42.3418 Y24.7567
G01 X42.3575 Y24.8356
G01 X42.3719 Y24.9327
G01 X42.3798 Y25.0127
G01 X42.3846 Y25.1108
G01 X42.3846 Y25.1912
G01 X42.3798 Y25.2893
G01 X42.3719 Y25.3693
G01 X42.3575 Y25.4664
G01 X42.3418 Y25.5453
G01 X42.3179 Y25.6405
G01 X42.2946 Y25.7175
G01 X42.2615 Y25.8099
G01 X42.2307 Y25.8843
G01 X42.1888 Y25.9730
G01 X42.1508 Y26.0440
G01 X42.1004 Y26.1281
G01 X42.0557 Y26.1950
G01 X41.9972 Y26.2739
G01 X41.9462 Y26.3361
G01 X41.8802 Y26.4088
G01 X41.8233 Y26.4657
G01 X41.7506 Y26.5316
G01 X41.6884 Y26.5826
G01 X41.6096 Y26.6411
G01 X41.5427 Y26.6858
G01 X41.4585 Y26.7363
G01 X41.3876 Y26.7742
G01 X41.2988 Y26.8162
G01 X41.2245 Y26.8469
G01 X41.1321 Y26.8800
G01 X41.0551 Y26.9034
G01 X40.9599 Y26.9272
G01 X40.8810 Y26.9429
G01 X40.7839 Y26.9573
G01 X40.7038 Y26.9652
G01 X40.6058 Y26.9700
G01 X40.5253 Y26.9700
G01 X40.4273 Y26.9652
G01 X40.3472 Y26.9573
G01 X40.2502 Y26.9429
G01 X40.1712 Y26.9272
G01 X40.0760 Y26.9034
G01 X39.9990 Y26.8800
G01 X39.9066 Y26.8469
G01 X39.8323 Y26.8162
G01 X39.7436 Y26.7742
G01 X39.6726 Y26.7363
G01 X39.5884 Y26.6858
G01 X39.5215 Y26.6411
G01 X39.4427 Y26.5826
G01 X39.4289 Y26.5713
G01 X35.7040 Y26.5713
G01 X35.6638 Y26.5703
G01 X35.6049 Y26.5674
G01 X35.5248 Y26.5595
G01 X35.4666 Y26.5509
G01 X35.3876 Y26.5352
G01 X35.3305 Y26.5209
G01 X35.2535 Y26.4975
G01 X35.1980 Y26.4777
G01 X35.1237 Y26.4469
G01 X35.0704 Y26.4217
G01 X34.9995 Y26.3838
G01 X34.9489 Y26.3535
G01 X34.8820 Y26.3088
G01 X34.8347 Y26.2737
G01 X34.7725 Y26.2226
G01 X34.7288 Y26.1831
G01 X34.6997 Y26.1553
G01 X34.6077 Y26.0633
G01 X30.9583 Y26.0633
G01 X26.9711 Y30.0505
G01 X26.9693 Y30.0683
G01 X26.9549 Y30.1654
G01 X26.9392 Y30.2443
G01 X26.9154 Y30.3395
G01 X26.8920 Y30.4165
G01 X26.8589 Y30.5089
G01 X26.8282 Y30.5833
G01 X26.7862 Y30.6720
G01 X26.7483 Y30.7430
G01 X26.6978 Y30.8271
G01 X26.6531 Y30.8940
G01 X26.5946 Y30.9729
G01 X26.5436 Y31.0351
G01 X26.4777 Y31.1078
G01 X26.4208 Y31.1647
G01 X26.3481 Y31.2306
G01 X26.2859 Y31.2816
G01 X26.2070 Y31.3401
G01 X26.1401 Y31.3848
G01 X26.0560 Y31.4353
G01 X25.9850 Y31.4732
G01 X25.8963 Y31.5152
G01 X25.8219 Y31.5459
G01 X25.7295 Y31.5790
G01 X25.6525 Y31.6024
G01 X25.5573 Y31.6262
G01 X25.4784 Y31.6419
G01 X25.3813 Y31.6563
G01 X25.3013 Y31.6642
G01 X25.2032 Y31.6690
G01 X25.1228 Y31.6690
G01 X25.0247 Y31.6642
G01 X24.9447 Y31.6563
G01 X24.8476 Y31.6419
G01 X24.7687 Y31.6262
G01 X24.6735 Y31.6024
G01 X24.5965 Y31.5790
G01 X24.5041 Y31.5459
G01 X24.4297 Y31.5152
G01 X24.3410 Y31.4732
G01 X24.2700 Y31.4353
G01 X24.1859 Y31.3848
G01 X24.1190 Y31.3401
G01 X24.0401 Y31.2816
G01 X23.9779 Y31.2306
G01 X23.9052 Y31.1647
G01 X23.8483 Y31.1078
G01 X23.7824 Y31.0351
G01 X23.7314 Y30.9729
G01 X23.6729 Y30.8940
G01 X23.6282 Y30.8271
G01 X23.5777 Y30.7430
G01 X23.5398 Y30.6720
G01 X23.4978 Y30.5833
G01 X23.4671 Y30.5089
G01 X23.4340 Y30.4165
G01 X23.4106 Y30.3395
G01 X23.3868 Y30.2443
G01 X23.3711 Y30.1654
G01 X23.3567 Y30.0683
G01 X23.3488 Y29.9883
G01 X23.3440 Y29.8902
G01 X23.3440 Y29.8098
G01 X23.3488 Y29.7117
G01 X23.3567 Y29.6317
G01 X23.3711 Y29.5346
G01 X23.3868 Y29.4557
G01 X23.4106 Y29.3605
G01 X23.4340 Y29.2835
G01 X23.4671 Y29.1911
G01 X23.4978 Y29.1167
G01 X23.5398 Y29.0280
G01 X23.5777 Y28.9570
G01 X23.6282 Y28.8729
G01 X23.6729 Y28.8060
G01 X23.7314 Y28.7271
G01 X23.7824 Y28.6649
G01 X23.8483 Y28.5922
G01 X23.9052 Y28.5353
G01 X23.9779 Y28.4694
G01 X24.0401 Y28.4184
G01 X24.1190 Y28.3599
G01 X24.1859 Y28.3152
G01 X24.2700 Y28.2647
G01 X24.3410 Y28.2268
G01 X24.4297 Y28.1848
G01 X24.5041 Y28.1541
G01 X24.5965 Y28.1210
G01 X24.6735 Y28.0976
G01 X24.7687 Y28.0738
G01 X24.8476 Y28.0581
G01 X24.9447 Y28.0437
G01 X24.9625 Y28.0419
G00 Z2.0000
G00 X25.0439 Y28.2151
G01 F60.00
G01 Z-0.0900
G01 F120.00
G01 X29.4930 Y23.7660
G01 X29.5157 Y23.7443
G01 X29.5594 Y23.7048
G01 X29.6079 Y23.6649
G01 X29.6552 Y23.6298
G01 X29.7075 Y23.5949
G01 X29.7580 Y23.5646
G01 X29.8134 Y23.5350
G01 X29.8666 Y23.5098
G01 X29.9247 Y23.4858
G01 X29.9801 Y23.4660
G01 X30.0402 Y23.4477
G01 X30.0974 Y23.4334
G01 X30.1590 Y23.4212
G01 X30.2173 Y23.4125
G01 X30.2798 Y23.4064
G01 X30.3386 Y23.4035
G01 X30.3700 Y23.4027
G01 X33.9557 Y23.4027
G01 X33.9557 Y15.7174
G01 X33.9565 Y15.6860
G01 X33.9594 Y15.6272
G01 X33.9655 Y15.5647
G01 X33.9742 Y15.5064
G01 X33.9864 Y15.4448
G01 X34.0007 Y15.3877
G01 X34.0190 Y15.3276
G01 X34.0388 Y15.2721
G01 X34.0628 Y15.2141
G01 X34.0880 Y15.1608
G01 X34.1176 Y15.1054
G01 X34.1479 Y15.0549
G01 X34.1828 Y15.0027
G01 X34.2179 Y14.9554
G01 X34.2578 Y14.9068
G01 X34.2973 Y14.8632
G01 X34.3190 Y14.8404
G01 X36.2281 Y12.9313
G01 X36.2286 Y12.9210
G01 X36.2347 Y12.8585
G01 X36.2491 Y12.7614
G01 X36.2614 Y12.6998
G01 X36.2852 Y12.6046
G01 X36.3035 Y12.5445
G01 X36.3365 Y12.4521
G01 X36.3606 Y12.3941
G01 X36.4025 Y12.3054
G01 X36.4321 Y12.2500
G01 X36.4826 Y12.1658
G01 X36.5175 Y12.1136
G01 X36.5759 Y12.0348
G01 X36.6158 Y11.9862
G01 X36.6817 Y11.9135
G01 X36.7261 Y11.8691
G01 X36.7988 Y11.8032
G01 X36.8474 Y11.7634
G01 X36.9262 Y11.7049
G01 X36.9784 Y11.6700
G01 X37.0626 Y11.6196
G01 X37.1180 Y11.5900
G01 X37.2067 Y11.5480
G01 X37.2647 Y11.5240
G01 X37.3571 Y11.4909
G01 X37.4172 Y11.4727
G01 X37.5124 Y11.4488
G01 X37.5740 Y11.4366
G01 X37.6711 Y11.4222
G01 X37.7336 Y11.4160
G01 X37.8316 Y11.4112
G01 X37.8944 Y11.4112
G01 X37.9924 Y11.4160
G01 X38.0549 Y11.4222
G01 X38.1520 Y11.4366
G01 X38.2136 Y11.4488
G01 X38.3088 Y11.4727
G01 X38.3689 Y11.4909
G01 X38.4613 Y11.5240
G01 X38.5193 Y11.5480
G01 X38.6080 Y11.5900
G01 X38.6634 Y11.6196
G01 X38.7476 Y11.6700
G01 X38.7998 Y11.7049
G01 X38.8786 Y11.7634
G01 X38.9272 Y11.8032
G01 X38.9999 Y11.8691
G01 X39.0443 Y11.9135
G01 X39.1102 Y11.9862
G01 X39.1501 Y12.0348
G01 X39.2085 Y12.1136
G01 X39.2434 Y12.1658
G01 X39.2939 Y12.2500
G01 X39.3235 Y12.3054
G01 X39.3654 Y12.3941
G01 X39.3895 Y12.4521
G01 X39.4225 Y12.5445
G01 X39.4408 Y12.6046
G01 X39.4646 Y12.6998
G01 X39.4769 Y12.7614
G01 X39.4913 Y12.8585
G01 X39.4974 Y12.9210
G01 X39.5022 Y13.0190
G01 X39.5022 Y13.0818
G01 X39.4974 Y13.1799
G01 X39.4913 Y13.2424
G01 X39.4769 Y13.3394
G01 X39.4646 Y13.4010
G01 X39.4408 Y13.4962
G01 X39.4225 Y13.5563
G01 X39.3895 Y13.6487
G01 X39.3654 Y13.7068
G01 X39.3235 Y13.7955
G01 X39.2939 Y13.8509
G01 X39.2434 Y13.9350
G01 X39.2085 Y13.9873
G01 X39.1501 Y14.0661
G01 X39.1102 Y14.1146
G01 X39.0443 Y14.1873
G01 X38.9999 Y14.2318
G01 X38.9272 Y14.2977
G01 X38.8786 Y14.3375
G01 X38.7998 Y14.3960
G01 X38.7476 Y14.4309
G01 X38.6634 Y14.4813
G01 X38.6080 Y14.5109
G01 X38.5193 Y14.5529
G01 X38.4613 Y14.5769
G01 X38.3689 Y14.6100
G01 X38.3088 Y14.6282
G01 X38.2136 Y14.6520
G01 X38.1520 Y14.6643
G01 X38.0549 Y14.6787
G01 X37.9924 Y14.6849
G01 X37.9821 Y14.6854
G01 X36.4363 Y16.2312
G01 X36.4363 Y23.9107
G01 X39.4937 Y23.9107
G01 X39.5014 Y23.9038
G01 X39.5499 Y23.8639
G01 X39.6287 Y23.8055
G01 X39.6810 Y23.7706
G01 X39.7651 Y23.7201
G01 X39.8205 Y23.6905
G01 X39.9092 Y23.6486
G01 X39.9673 Y23.6245
G01 X40.0597 Y23.5915
G01 X40.1198 Y23.5732
G01 X40.2150 Y23.5494
G01 X40.2766 Y23.5371
G01 X40.3736 Y23.5227
G01 X40.4361 Y23.5166
G01 X40.5342 Y23.5118
G01 X40.5970 Y23.5118
G01 X40.6950 Y23.5166
G01 X40.7575 Y23.5227
G01 X40.8546 Y23.5371
G01 X40.9162 Y23.5494
G01 X41.0114 Y23.5732
G01 X41.0715 Y23.5915
G01 X41.1639 Y23.6245
G01 X41.2219 Y23.6486
G01 X41.3106 Y23.6905
G01 X41.3660 Y23.7201
G01 X41.4502 Y23.7706
G01 X41.5024 Y23.8055
G01 X41.5812 Y23.8639
G01 X41.6298 Y23.9038
G01 X41.7025 Y23.9697
G01 X41.7469 Y24.0141
G01 X41.8128 Y24.0868
G01 X41.8526 Y24.1354
G01 X41.9111 Y24.2142
G01 X41.9460 Y24.2664
G01 X41.9964 Y24.3506
G01 X42.0260 Y24.4060
G01 X42.0680 Y24.4947
G01 X42.0920 Y24.5527
G01 X42.1251 Y24.6451
G01 X42.1433 Y24.7052
G01 X42.1672 Y24.8004
G01 X42.1794 Y24.8620
G01 X42.1938 Y24.9591
G01 X42.2000 Y25.0216
G01 X42.2048 Y25.1196
G01 X42.2048 Y25.1824
G01 X42.2000 Y25.2804
G01 X42.1938 Y25.3429
G01 X42.1794 Y25.4400
G01 X42.1672 Y25.5016
G01 X42.1433 Y25.5968
G01 X42.1251 Y25.6569
G01 X42.0920 Y25.7493
G01 X42.0680 Y25.8073
G01 X42.0260 Y25.8960
G01 X41.9964 Y25.9514
G01 X41.9460 Y26.0356
G01 X41.9111 Y26.0878
G01 X41.8526 Y26.1666
G01 X41.8128 Y26.2152
G01 X41.7469 Y26.2879
G01 X41.7025 Y26.3323
G01 X41.6298 Y26.3982
G01 X41.5812 Y26.4381
G01 X41.5024 Y26.4965
G01 X41.4502 Y26.5314
G01 X41.3660 Y26.5819
G01 X41.3106 Y26.6115
G01 X41.2219 Y26.6534
G01 X41.1639 Y26.6775
G01 X41.0715 Y26.7105
G01 X41.0114 Y26.7288
G01 X40.9162 Y26.7526
G01 X40.8546 Y26.7649
G01 X40.7575 Y26.7793
G01 X40.6950 Y26.7854
G01 X40.5970 Y26.7902
G01 X40.5342 Y26.7902
G01 X40.4361 Y26.7854
G01 X40.3736 Y26.7793
G01 X40.2766 Y26.7649
G01 X40.2150 Y26.7526
G01 X40.1198 Y26.7288
G01 X40.0597 Y26.7105
G01 X39.9673 Y26.6775
G01 X39.9092 Y26.6534
G01 X39.8205 Y26.6115
G01 X39.7651 Y26.5819
G01 X39.6810 Y26.5314
G01 X39.6287 Y26.4965
G01 X39.5499 Y26.4381
G01 X39.5014 Y26.3982
G01 X39.4937 Y26.3913
G01 X35.7040 Y26.3913
G01 X35.6726 Y26.3905
G01 X35.6138 Y26.3876
G01 X35.5513 Y26.3815
G01 X35.4930 Y26.3728
G01 X35.4314 Y26.3606
G01 X35.3742 Y26.3463
G01 X35.3141 Y26.3280
G01 X35.2587 Y26.3082
G01 X35.2006 Y26.2842
G01 X35.1474 Y26.2590
G01 X35.0920 Y26.2294
G01 X35.0415 Y26.1991
G01 X34.9892 Y26.1642
G01 X34.9419 Y26.1291
G01 X34.8934 Y26.0892
G01 X34.8497 Y26.0497
G01 X34.8270 Y26.0280
G01 X34.6823 Y25.8833
G01 X30.8837 Y25.8833
G01 X26.7979 Y29.9691
G01 X26.7974 Y29.9794
G01 X26.7913 Y30.0419
G01 X26.7769 Y30.1390
G01 X26.7646 Y30.2006
G01 X26.7408 Y30.2958
G01 X26.7225 Y30.3559
G01 X26.6895 Y30.4483
G01 X26.6654 Y30.5063
G01 X26.6235 Y30.5950
G01 X26.5939 Y30.6504
G01 X26.5434 Y30.7346
G01 X26.5085 Y30.7868
G01 X26.4501 Y30.8656
G01 X26.4102 Y30.9142
G01 X26.3443 Y30.9869
G01 X26.2999 Y31.0313
G01 X26.2272 Y31.0972
G01 X26.1786 Y31.1371
G01 X26.0998 Y31.1955
G01 X26.0476 Y31.2304
G01 X25.9634 Y31.2809
G01 X25.9080 Y31.3105
G01 X25.8193 Y31.3524
G01 X25.7613 Y31.3765
G01 X25.6689 Y31.4095
G01 X25.6088 Y31.4278
G01 X25.5136 Y31.4516
G01 X25.4520 Y31.4639
G01 X25.3549 Y31.4783
G01 X25.2924 Y31.4844
G01 X25.1944 Y31.4892
G01 X25.1316 Y31.4892
G01 X25.0336 Y31.4844
G01 X24.9711 Y31.4783
G01 X24.8740 Y31.4639
G01 X24.8124 Y31.4516
G01 X24.7172 Y31.4278
G01 X24.6571 Y31.4095
G01 X24.5647 Y31.3765
G01 X24.5067 Y31.3524
G01 X24.4180 Y31.3105
G01 X24.3626 Y31.2809
G01 X24.2784 Y31.2304
G01 X24.2262 Y31.1955
G01 X24.1474 Y31.1371
G01 X24.0988 Y31.0972
G01 X24.0261 Y31.0313
G01 X23.9817 Y30.9869
G01 X23.9158 Y30.9142
G01 X23.8759 Y30.8656
G01 X23.8175 Y30.7868
G01 X23.7826 Y30.7346
G01 X23.7321 Y30.6504
G01 X23.7025 Y30.5950
G01 X23.6606 Y30.5063
G01 X23.6365 Y30.4483
G01 X23.6035 Y30.3559
G01 X23.5852 Y30.2958
G01 X23.5614 Y30.2006
G01 X23.5491 Y30.1390
G01 X23.5347 Y30.0419
G01 X23.5286 Y29.9794
G01 X23.5238 Y29.8814
G01 X23.5238 Y29.8186
G01 X23.5286 Y29.7206
G01 X23.5347 Y29.6581
G01 X23.5491 Y29.5610
G01 X23.5614 Y29.4994
G01 X23.5852 Y29.4042
G01 X23.6035 Y29.3441
G01 X23.6365 Y29.2517
G01 X23.6606 Y29.1937
G01 X23.7025 Y29.1050
G01 X23.7321 Y29.0496
G01 X23.7826 Y28.9654
G01 X23.8175 Y28.9132
G01 X23.8759 Y28.8344
G01 X23.9158 Y28.7858
G01 X23.9817 Y28.7131
G01 X24.0261 Y28.6687
G01 X24.0988 Y28.6028
G01 X24.1474 Y28.5629
G01 X24.2262 Y28.5045
G01 X24.2784 Y28.4696
G01 X24.3626 Y28.4191
G01 X24.4180 Y28.3895
G01 X24.5067 Y28.3476
G01 X24.5647 Y28.3235
G01 X24.6571 Y28.2905
G01 X24.7172 Y28.2722
G01 X24.8124 Y28.2484
G01 X24.8740 Y28.2361
G01 X24.9711 Y28.2217
G01 X25.0336 Y28.2156
G01 X25.0439 Y28.2151
G00 Z2.0000
G00 X25.1221 Y28.3915
G01 F60.00
G01 Z-0.0900
G01 F120.00
G01 X29.6203 Y23.8933
G01 X29.6366 Y23.8777
G01 X29.6803 Y23.8381
G01 X29.7152 Y23.8095
G01 X29.7625 Y23.7744
G01 X29.8000 Y23.7493
G01 X29.8505 Y23.7190
G01 X29.8903 Y23.6977
G01 X29.9436 Y23.6726
G01 X29.9853 Y23.6553
G01 X30.0408 Y23.6354
G01 X30.0840 Y23.6223
G01 X30.1411 Y23.6080
G01 X30.1854 Y23.5992
G01 X30.2437 Y23.5906
G01 X30.2886 Y23.5861
G01 X30.3474 Y23.5833
G01 X30.3700 Y23.5827
G01 X34.1357 Y23.5827
G01 X34.1357 Y15.7174
G01 X34.1363 Y15.6949
G01 X34.1391 Y15.6360
G01 X34.1436 Y15.5911
G01 X34.1522 Y15.5328
G01 X34.1610 Y15.4886
G01 X34.1753 Y15.4314
G01 X34.1884 Y15.3882
G01 X34.2083 Y15.3327
G01 X34.2256 Y15.2910
G01 X34.2507 Y15.2378
G01 X34.2720 Y15.1980
G01 X34.3023 Y15.1474
G01 X34.3274 Y15.1099
G01 X34.3625 Y15.0626
G01 X34.3911 Y15.0277
G01 X34.4307 Y14.9840
G01 X34.4463 Y14.9677
G01 X36.4045 Y13.0095
G01 X36.4084 Y12.9299
G01 X36.4128 Y12.8849
G01 X36.4272 Y12.7879
G01 X36.4360 Y12.7436
G01 X36.4598 Y12.6484
G01 X36.4729 Y12.6052
G01 X36.5060 Y12.5128
G01 X36.5233 Y12.4711
G01 X36.5652 Y12.3824
G01 X36.5865 Y12.3426
G01 X36.6370 Y12.2584
G01 X36.6621 Y12.2208
G01 X36.7205 Y12.1420
G01 X36.7492 Y12.1071
G01 X36.8151 Y12.0344
G01 X36.8470 Y12.0025
G01 X36.9197 Y11.9366
G01 X36.9546 Y11.9080
G01 X37.0334 Y11.8495
G01 X37.0709 Y11.8244
G01 X37.1551 Y11.7740
G01 X37.1949 Y11.7527
G01 X37.2836 Y11.7107
G01 X37.3253 Y11.6935
G01 X37.4177 Y11.6604
G01 X37.4609 Y11.6473
G01 X37.5561 Y11.6234
G01 X37.6004 Y11.6146
G01 X37.6975 Y11.6002
G01 X37.7424 Y11.5958
G01 X37.8404 Y11.5910
G01 X37.8856 Y11.5910
G01 X37.9836 Y11.5958
G01 X38.0285 Y11.6002
G01 X38.1256 Y11.6146
G01 X38.1699 Y11.6234
G01 X38.2651 Y11.6473
G01 X38.3083 Y11.6604
G01 X38.4007 Y11.6935
G01 X38.4424 Y11.7107
G01 X38.5311 Y11.7527
G01 X38.5709 Y11.7740
G01 X38.6551 Y11.8244
G01 X38.6926 Y11.8495
G01 X38.7714 Y11.9080
G01 X38.8063 Y11.9366
G01 X38.8790 Y12.0025
G01 X38.9109 Y12.0344
G01 X38.9768 Y12.1071
G01 X39.0055 Y12.1420
G01 X39.0639 Y12.2208
G01 X39.0890 Y12.2584
G01 X39.1395 Y12.3426
G01 X39.1608 Y12.3824
G01 X39.2027 Y12.4711
G01 X39.2200 Y12.5128
G01 X39.2531 Y12.6052
G01 X39.2662 Y12.6484
G01 X39.2900 Y12.7436
G01 X39.2988 Y12.7879
G01 X39.3132 Y12.8849
G01 X39.3176 Y12.9299
G01 X39.3224 Y13.0279
G01 X39.3224 Y13.0730
G01 X39.3176 Y13.1710
G01 X39.3132 Y13.2160
G01 X39.2988 Y13.3130
G01 X39.2900 Y13.3573
G01 X39.2662 Y13.4525
G01 X39.2531 Y13.4957
G01 X39.2200 Y13.5881
G01 X39.2027 Y13.6298
G01 X39.1608 Y13.7185
G01 X39.1395 Y13.7583
G01 X39.0890 Y13.8425
G01 X39.0639 Y13.8800
G01 X39.0055 Y13.9589
G01 X38.9768 Y13.9938
G01 X38.9109 Y14.0665
G01 X38.8790 Y14.0984
G01 X38.8063 Y14.1643
G01 X38.7714 Y14.1929
G01 X38.6926 Y14.2514
G01 X38.6551 Y14.2765
G01 X38.5709 Y14.3269
G01 X38.5311 Y14.3482
G01 X38.4424 Y14.3902
G01 X38.4007 Y14.4074
G01 X38.3083 Y14.4405
G01 X38.2651 Y14.4536
G01 X38.1699 Y14.4774
G01 X38.1256 Y14.4862
G01 X38.0285 Y14.5006
G01 X37.9836 Y14.5051
G01 X37.9039 Y14.5090
G01 X36.2563 Y16.1566
G01 X36.2563 Y24.0907
G01 X39.5632 Y24.0907
G01 X39.6222 Y24.0372
G01 X39.6571 Y24.0085
G01 X39.7360 Y23.9501
G01 X39.7735 Y23.9250
G01 X39.8577 Y23.8745
G01 X39.8975 Y23.8532
G01 X39.9862 Y23.8113
G01 X40.0279 Y23.7940
G01 X40.1203 Y23.7609
G01 X40.1635 Y23.7478
G01 X40.2587 Y23.7240
G01 X40.3030 Y23.7152
G01 X40.4000 Y23.7008
G01 X40.4450 Y23.6964
G01 X40.5430 Y23.6916
G01 X40.5881 Y23.6916
G01 X40.6861 Y23.6964
G01 X40.7311 Y23.7008
G01 X40.8281 Y23.7152
G01 X40.8724 Y23.7240
G01 X40.9676 Y23.7478
G01 X41.0108 Y23.7609
G01 X41.1032 Y23.7940
G01 X41.1449 Y23.8113
G01 X41.2336 Y23.8532
G01 X41.2734 Y23.8745
G01 X41.3576 Y23.9250
G01 X41.3952 Y23.9501
G01 X41.4740 Y24.0085
G01 X41.5089 Y24.0372
G01 X41.5816 Y24.1031
G01 X41.6135 Y24.1350
G01 X41.6794 Y24.2077
G01 X41.7080 Y24.2426
G01 X41.7665 Y24.3214
G01 X41.7916 Y24.3589
G01 X41.8420 Y24.4431
G01 X41.8633 Y24.4829
G01 X41.9053 Y24.5716
G01 X41.9225 Y24.6133
G01 X41.9556 Y24.7057
G01 X41.9687 Y24.7489
G01 X41.9926 Y24.8441
G01 X42.0014 Y24.8884
G01 X42.0158 Y24.9855
G01 X42.0202 Y25.0304
G01 X42.0250 Y25.1284
G01 X42.0250 Y25.1736
G01 X42.0202 Y25.2716
G01 X42.0158 Y25.3165
G01 X42.0014 Y25.4136
G01 X41.9926 Y25.4579
G01 X41.9687 Y25.5531
G01 X41.9556 Y25.5963
G01 X41.9225 Y25.6887
G01 X41.9053 Y25.7304
G01 X41.8633 Y25.8191
G01 X41.8420 Y25.8589
G01 X41.7916 Y25.9431
G01 X41.7665 Y25.9806
G01 X41.7080 Y26.0594
G01 X41.6794 Y26.0943
G01 X41.6135 Y26.1670
G01 X41.5816 Y26.1989
G01 X41.5089 Y26.2648
G01 X41.4740 Y26.2935
G01 X41.3952 Y26.3519
G01 X41.3576 Y26.3770
G01 X41.2734 Y26.4275
G01 X41.2336 Y26.4488
G01 X41.1449 Y26.4907
G01 X41.1032 Y26.5080
G01 X41.0108 Y26.5411
G01 X40.9676 Y26.5542
G01 X40.8724 Y26.5780
G01 X40.8281 Y26.5868
G01 X40.7311 Y26.6012
G01 X40.6861 Y26.6056
G01 X40.5881 Y26.6104
G01 X40.5430 Y26.6104
G01 X40.4450 Y26.6056
G01 X40.4000 Y26.6012
G01 X40.3030 Y26.5868
G01 X40.2587 Y26.5780
G01 X40.1635 Y26.5542
G01 X40.1203 Y26.5411
G01 X40.0279 Y26.5080
G01 X39.9862 Y26.4907
G01 X39.8975 Y26.4488
G01 X39.8577 Y26.4275
G01 X39.7735 Y26.3770
G01 X39.7360 Y26.3519
G01 X39.6571 Y26.2935
G01 X39.6222 Y26.2648
G01 X39.5632 Y26.2113
G01 X35.7040 Y26.2113
G01 X35.6814 Y26.2107
G01 X35.6226 Y26.2079
G01 X35.5777 Y26.2034
G01 X35.5194 Y26.1948
G01 X35.4751 Y26.1860
G01 X35.4180 Y26.1717
G01 X35.3748 Y26.1586
G01 X35.3193 Y26.1387
G01 X35.2776 Y26.1214
G01 X35.2243 Y26.0963
G01 X35.1845 Y26.0750
G01 X35.1340 Y26.0447
G01 X35.0965 Y26.0196
G01 X35.0492 Y25.9845
G01 X35.0143 Y25.9559
G01 X34.9706 Y25.9163
G01 X34.9543 Y25.9007
G01 X34.7568 Y25.7033
G01 X30.8092 Y25.7033
G01 X26.6215 Y29.8909
G01 X26.6176 Y29.9706
G01 X26.6132 Y30.0155
G01 X26.5988 Y30.1126
G01 X26.5900 Y30.1569
G01 X26.5662 Y30.2521
G01 X26.5531 Y30.2953
G01 X26.5200 Y30.3877
G01 X26.5027 Y30.4294
G01 X26.4608 Y30.5181
G01 X26.4395 Y30.5579
G01 X26.3890 Y30.6421
G01 X26.3639 Y30.6796
G01 X26.3055 Y30.7584
G01 X26.2768 Y30.7933
G01 X26.2109 Y30.8660
G01 X26.1790 Y30.8979
G01 X26.1063 Y30.9638
G01 X26.0714 Y30.9925
G01 X25.9926 Y31.0509
G01 X25.9551 Y31.0760
G01 X25.8709 Y31.1265
G01 X25.8311 Y31.1478
G01 X25.7424 Y31.1897
G01 X25.7007 Y31.2070
G01 X25.6083 Y31.2401
G01 X25.5651 Y31.2532
G01 X25.4699 Y31.2770
G01 X25.4256 Y31.2858
G01 X25.3285 Y31.3002
G01 X25.2836 Y31.3046
G01 X25.1856 Y31.3094
G01 X25.1404 Y31.3094
G01 X25.0424 Y31.3046
G01 X24.9975 Y31.3002
G01 X24.9004 Y31.2858
G01 X24.8561 Y31.2770
G01 X24.7609 Y31.2532
G01 X24.7177 Y31.2401
G01 X24.6253 Y31.2070
G01 X24.5836 Y31.1897
G01 X24.4949 Y31.1478
G01 X24.4551 Y31.1265
G01 X24.3709 Y31.0760
G01 X24.3334 Y31.0509
G01 X24.2546 Y30.9925
G01 X24.2197 Y30.9638
G01 X24.1470 Y30.8979
G01 X24.1151 Y30.8660
G01 X24.0492 Y30.7933
G01 X24.0205 Y30.7584
G01 X23.9621 Y30.6796
G01 X23.9370 Y30.6421
G01 X23.8865 Y30.5579
G01 X23.8652 Y30.5181
G01 X23.8233 Y30.4294
G01 X23.8060 Y30.3877
G01 X23.7729 Y30.2953
G01 X23.7598 Y30.2521
G01 X23.7360 Y30.1569
G01 X23.7272 Y30.1126
G01 X23.7128 Y30.0155
G01 X23.7084 Y29.9706
G01 X23.7036 Y29.8726
G01 X23.7036 Y29.8274
G01 X23.7084 Y29.7294
G01 X23.7128 Y29.6845
G01 X23.7272 Y29.5874
G01 X23.7360 Y29.5431
G01 X23.7598 Y29.4479
G01 X23.7729 Y29.4047
G01 X23.8060 Y29.3123
G01 X23.8233 Y29.2706
G01 X23.8652 Y29.1819
G01 X23.8865 Y29.1421
G01 X23.9370 Y29.0579
G01 X23.9621 Y29.0204
G01 X24.0205 Y28.9416
G01 X24.0492 Y28.9067
G01 X24.1151 Y28.8340
G01 X24.1470 Y28.8021
G01 X24.2197 Y28.7362
G01 X24.2546 Y28.7075
G01 X24.3334 Y28.6491
G01 X24.3709 Y28.6240
G01 X24.4551 Y28.5735
G01 X24.4949 Y28.5522
G01 X24.5836 Y28.5103
G01 X24.6253 Y28.4930
G01 X24.7177 Y28.4599
G01 X24.7609 Y28.4468
G01 X24.8561 Y28.4230
G01 X24.9004 Y28.4142
G01 X24.9975 Y28.3998
G01 X25.0424 Y28.3954
G01 X25.1221 Y28.3915
G00 Z2.0000
G00 X25.1967 Y28.5713
G01 F60.00
G01 Z-0.0900
G01 F120.00
G01 X29.7475 Y24.0205
G01 X29.7575 Y24.0111
G01 X29.8011 Y23.9715
G01 X29.8224 Y23.9541
G01 X29.8697 Y23.9190
G01 X29.8925 Y23.9037
G01 X29.9431 Y23.8734
G01 X29.9673 Y23.8605
G01 X30.0206 Y23.8353
G01 X30.0459 Y23.8248
G01 X30.1014 Y23.8049
G01 X30.1277 Y23.7969
G01 X30.1849 Y23.7826
G01 X30.2118 Y23.7773
G01 X30.2701 Y23.7686
G01 X30.2974 Y23.7659
G01 X30.3563 Y23.7630
G01 X30.3700 Y23.7627
G01 X34.3157 Y23.7627
G01 X34.3157 Y15.7174
G01 X34.3160 Y15.7037
G01 X34.3189 Y15.6449
G01 X34.3216 Y15.6175
G01 X34.3303 Y15.5592
G01 X34.3356 Y15.5323
G01 X34.3499 Y15.4751
G01 X34.3579 Y15.4489
G01 X34.3778 Y15.3934
G01 X34.3883 Y15.3680
G01 X34.4135 Y15.3147
G01 X34.4264 Y15.2905
G01 X34.4567 Y15.2400
G01 X34.4720 Y15.2171
G01 X34.5071 Y15.1698
G01 X34.5245 Y15.1486
G01 X34.5641 Y15.1049
G01 X34.5735 Y15.0950
G01 X36.5843 Y13.0842
G01 X36.5833 Y13.0642
G01 X36.5833 Y13.0367
G01 X36.5882 Y12.9387
G01 X36.5908 Y12.9113
G01 X36.6052 Y12.8143
G01 X36.6106 Y12.7873
G01 X36.6345 Y12.6921
G01 X36.6424 Y12.6658
G01 X36.6755 Y12.5734
G01 X36.6860 Y12.5480
G01 X36.7280 Y12.4593
G01 X36.7409 Y12.4351
G01 X36.7914 Y12.3509
G01 X36.8066 Y12.3281
G01 X36.8651 Y12.2493
G01 X36.8825 Y12.2280
G01 X36.9484 Y12.1553
G01 X36.9679 Y12.1359
G01 X37.0406 Y12.0700
G01 X37.0618 Y12.0525
G01 X37.1406 Y11.9941
G01 X37.1635 Y11.9788
G01 X37.2477 Y11.9284
G01 X37.2719 Y11.9154
G01 X37.3606 Y11.8734
G01 X37.3860 Y11.8629
G01 X37.4784 Y11.8299
G01 X37.5047 Y11.8219
G01 X37.5999 Y11.7980
G01 X37.6268 Y11.7927
G01 X37.7239 Y11.7783
G01 X37.7512 Y11.7756
G01 X37.8493 Y11.7708
G01 X37.8767 Y11.7708
G01 X37.9748 Y11.7756
G01 X38.0021 Y11.7783
G01 X38.0992 Y11.7927
G01 X38.1261 Y11.7980
G01 X38.2213 Y11.8219
G01 X38.2476 Y11.8299
G01 X38.3400 Y11.8629
G01 X38.3654 Y11.8734
G01 X38.4541 Y11.9154
G01 X38.4783 Y11.9284
G01 X38.5625 Y11.9788
G01 X38.5854 Y11.9941
G01 X38.6642 Y12.0525
G01 X38.6854 Y12.0700
G01 X38.7581 Y12.1359
G01 X38.7776 Y12.1553
G01 X38.8435 Y12.2280
G01 X38.8609 Y12.2493
G01 X38.9194 Y12.3281
G01 X38.9346 Y12.3509
G01 X38.9851 Y12.4351
G01 X38.9980 Y12.4593
G01 X39.0400 Y12.5480
G01 X39.0505 Y12.5734
G01 X39.0836 Y12.6658
G01 X39.0915 Y12.6921
G01 X39.1154 Y12.7873
G01 X39.1208 Y12.8143
G01 X39.1352 Y12.9113
G01 X39.1378 Y12.9387
G01 X39.1427 Y13.0367
G01 X39.1427 Y13.0642
G01 X39.1378 Y13.1622
G01 X39.1352 Y13.1895
G01 X39.1208 Y13.2866
G01 X39.1154 Y13.3136
G01 X39.0915 Y13.4088
G01 X39.0836 Y13.4351
G01 X39.0505 Y13.5275
G01 X39.0400 Y13.5528
G01 X38.9980 Y13.6416
G01 X38.9851 Y13.6658
G01 X38.9346 Y13.7500
G01 X38.9194 Y13.7728
G01 X38.8609 Y13.8516
G01 X38.8435 Y13.8729
G01 X38.7776 Y13.9456
G01 X38.7581 Y13.9650
G01 X38.6854 Y14.0309
G01 X38.6642 Y14.0483
G01 X38.5854 Y14.1068
G01 X38.5625 Y14.1221
G01 X38.4783 Y14.1725
G01 X38.4541 Y14.1855
G01 X38.3654 Y14.2274
G01 X38.3400 Y14.2380
G01 X38.2476 Y14.2710
G01 X38.2213 Y14.2790
G01 X38.1261 Y14.3028
G01 X38.0992 Y14.3082
G01 X38.0021 Y14.3226
G01 X37.9748 Y14.3253
G01 X37.8767 Y14.3301
G01 X37.8493 Y14.3301
G01 X37.8293 Y14.3291
G01 X36.0763 Y16.0821
G01 X36.0763 Y24.2707
G01 X39.6375 Y24.2707
G01 X39.6510 Y24.2559
G01 X39.6704 Y24.2364
G01 X39.7431 Y24.1705
G01 X39.7644 Y24.1531
G01 X39.8432 Y24.0946
G01 X39.8660 Y24.0794
G01 X39.9502 Y24.0289
G01 X39.9744 Y24.0160
G01 X40.0632 Y23.9740
G01 X40.0885 Y23.9635
G01 X40.1809 Y23.9304
G01 X40.2072 Y23.9225
G01 X40.3024 Y23.8986
G01 X40.3294 Y23.8932
G01 X40.4265 Y23.8788
G01 X40.4538 Y23.8762
G01 X40.5518 Y23.8713
G01 X40.5793 Y23.8713
G01 X40.6773 Y23.8762
G01 X40.7047 Y23.8788
G01 X40.8017 Y23.8932
G01 X40.8287 Y23.8986
G01 X40.9239 Y23.9225
G01 X40.9502 Y23.9304
G01 X41.0426 Y23.9635
G01 X41.0680 Y23.9740
G01 X41.1567 Y24.0160
G01 X41.1809 Y24.0289
G01 X41.2651 Y24.0794
G01 X41.2879 Y24.0946
G01 X41.3667 Y24.1531
G01 X41.3880 Y24.1705
G01 X41.4607 Y24.2364
G01 X41.4801 Y24.2559
G01 X41.5460 Y24.3286
G01 X41.5635 Y24.3498
G01 X41.6219 Y24.4286
G01 X41.6372 Y24.4515
G01 X41.6876 Y24.5357
G01 X41.7006 Y24.5599
G01 X41.7426 Y24.6486
G01 X41.7531 Y24.6740
G01 X41.7861 Y24.7664
G01 X41.7941 Y24.7927
G01 X41.8180 Y24.8879
G01 X41.8233 Y24.9148
G01 X41.8377 Y25.0119
G01 X41.8404 Y25.0392
G01 X41.8452 Y25.1373
G01 X41.8452 Y25.1647
G01 X41.8404 Y25.2628
G01 X41.8377 Y25.2901
G01 X41.8233 Y25.3872
G01 X41.8180 Y25.4141
G01 X41.7941 Y25.5093
G01 X41.7861 Y25.5356
G01 X41.7531 Y25.6280
G01 X41.7426 Y25.6534
G01 X41.7006 Y25.7421
G01 X41.6876 Y25.7663
G01 X41.6372 Y25.8505
G01 X41.6219 Y25.8734
G01 X41.5635 Y25.9522
G01 X41.5460 Y25.9734
G01 X41.4801 Y26.0461
